!!!!SEGMENT: pl-sa--3-a-i-3--006_binder-christlieb-siegmund--missa-ex-c-agnus-dei.krn
!!!cenid: 17xx:592
!!!COM: Binder, Christlieb Siegmund
!!!COM-rismid: pe356579
!!!CDT: 1723-1789
!!!CNT: German
!!!OPR: Missa ex C
!!!OTL: Agnus Dei
!!!OMV: 006
!!!PDT: 1814
!!!AGN: Sacred; Mass
!!!SMS-siglum: PL-SA
!!!SMS-shelfmark: 3/A I 3
!!!SMS-shelfwork: 001-006 M
!!!SMS-variant:
!!!SMS-altvar:
!!!NIFC-rismid: 1001036472
!!!URL-scan: http://bc.bdsandomierz.pl/dlibra/publication/1271/edition/1239/content
!!!ONB-nifc: UWAGA: części Mszy: Kyrie, Gloria, Credo, Sanctus, Benedictus, Agnus Dei
!!!AIN: 1 alto 1 organ 1 tenor 2 violn 1 vox
!!!key:
**kern	**fba	**dynam	**kern	**dynam	**kern	**dynam	**kern	**text	**kern	**text	**kern	**text
*part6	*	*part6	*part5	*part5	*part4	*part4	*part3	*part3	*part2	*part2	*part1	*part1
*	*	*	*group2	*	*group2	*	*group1	*	*group1	*	*group1	*
*staff6	*	*	*staff5	*	*staff4	*	*staff3	*staff3	*staff2	*staff2	*staff1	*staff1
*Iorgan	*	*	*Ivioln	*	*Ivioln	*	*Itenor	*	*Ialto	*	*Ivox	*
*I"Organo.	*	*	*I"Violino 2do.	*	*I"Violino Primo	*	*I"Tenore	*	*I"Alto.	*	*I"Canto.	*
*I'org	*	*	*I'vl 2	*	*I'vl 1	*	*I'T	*	*I'A	*	*I'C	*
*clefF4	*	*	*clefG2	*	*clefG2	*	*clefC4	*	*clefC3	*	*clefC1	*
*k[]	*	*	*k[]	*	*k[]	*	*k[]	*	*k[]	*	*k[]	*
*C:	*	*	*C:	*	*C:	*	*C:	*	*C:	*	*C:	*
*M3/4	*	*	*M3/4	*	*M3/4	*	*M3/4	*	*M3/4	*	*M3/4	*
=1	=1	=1	=1	=1	=1	=1	=1	=1	=1	=1	=1	=1
!LO:TX:b:i:t=Agnus Dej=	!	!	!LO:TX:a:i:t=Tarde	!	!LO:TX:b:i:t=Agnus Dej=	!	!LO:TX:a:t=6.	!	!LO:TX:a:t=16.	!	!LO:TX:a:t=6.	!
!LO:TX:a:i:t=Tarde	!	!	!LO:TX:b:i:t=Agnus Dej=	!	!LO:TX:a:i:t=Tarde.	!	!LO:TX:a:i:t=Tarde	!	!LO:TX:a:i:t=Tarde=	!	!LO:TX:a:i:t=Tarde=	!
!	!	!	!	!	!	!	!LO:N:vis=00	!	!LO:N:vis=00	!	!LO:N:vis=00	!
4A\	.	.	8r	.	8r	.	0.r	.	0.r	.	0.r	.
.	.	.	8cc\L|	.	8ee\L|	.	.	.	.	.	.	.
8r	.	.	(8b\	.	(8dd\	.	.	.	.	.	.	.
8A\L	.	.	8a\	.	8cc\	.	.	.	.	.	.	.
8G#X\	.	.	8g#X\	.	8b\	.	.	.	.	.	.	.
8A\J	.	.	8a\J)	.	8cc\J)	.	.	.	.	.	.	.
=2	=2	=2	=2	=2	=2	=2	=2	=2	=2	=2	=2	=2
4A\	.	.	8r	.	8r	.	.	.	.	.	.	.
.	.	.	8cc\L|	.	8ee\L|	.	.	.	.	.	.	.
8r	.	.	(8b\	.	(8dd\	.	.	.	.	.	.	.
8A\L	.	.	8a\	.	8cc\	.	.	.	.	.	.	.
8G#X\	.	.	8g#X\	.	8b\	.	.	.	.	.	.	.
8A\J	.	.	8a\J)	.	8cc\J)	.	.	.	.	.	.	.
=3	=3	=3	=3	=3	=3	=3	=3	=3	=3	=3	=3	=3
4B\	n	.	8r	.	8r	.	.	.	.	.	.	.
.	.	.	8dd\L|	.	8ff\L|	.	.	.	.	.	.	.
8r	.	.	(8cc\	.	(8ee\	.	.	.	.	.	.	.
8B\L	.	.	8b\	.	8dd\	.	.	.	.	.	.	.
8A#X\	.	.	8a#X\	.	8cc#X\	.	.	.	.	.	.	.
8B\J	.	.	8b\J)	.	8dd\J)	.	.	.	.	.	.	.
=4	=4	=4	=4	=4	=4	=4	=4	=4	=4	=4	=4	=4
4B\	.	.	8r	.	8r	.	.	.	.	.	.	.
.	.	.	8dd\L|	.	8ff\L|	.	.	.	.	.	.	.
8r	.	.	(8cc\	.	(8ee\	.	.	.	.	.	.	.
8B\L	.	.	8b\	.	8dd\	.	.	.	.	.	.	.
8A#X\	.	.	8a#X\	.	8cc#X\	.	.	.	.	.	.	.
8B\J	.	.	8b\J)	.	8dd\J)	.	.	.	.	.	.	.
=5	=5	=5	=5	=5	=5	=5	=5	=5	=5	=5	=5	=5
!	!	!	!	!	!	!	!LO:N:vis=0	!	!LO:N:vis=00	!	!LO:N:vis=0	!
4c\	.	.	8r	.	8r	.	1.r	.	0.r	.	1.r	.
.	.	.	8ee\	.	8gg\|	.	.	.	.	.	.	.
4r	.	.	8.dd\L	.	8.ff\L	.	.	.	.	.	.	.
.	.	.	16cc\K	.	16ee\Jk	.	.	.	.	.	.	.
8D\L	8 6	.	8b\	.	8dd\L	.	.	.	.	.	.	.
8D#X\J	7 5	.	8a\J	.	8ccn\J	.	.	.	.	.	.	.
=6	=6	=6	=6	=6	=6	=6	=6	=6	=6	=6	=6	=6
4E\	6 4	.	8.a/L	.	8.cc\L	.	.	.	.	.	.	.
.	.	.	32g#X/LL	.	32b\LL	.	.	.	.	.	.	.
.	.	.	32a/JJJ	.	32cc\JJJ	.	.	.	.	.	.	.
4EE/	5 #	.	4g#X/	.	4b\	.	.	.	.	.	.	.
4r	.	.	4r	.	4r	.	.	.	.	.	.	.
!	!	!	!	!	!LO:LB:g=original	!	!	!	!	!	!	!
=7	=7	=7	=7	=7	=7	=7	=7	=7	=7	=7	=7	=7
!	!	!LO:DY:b:t=pia	!	!	!	!LO:DY:b:t=piano	!	!	!	!	!	!
4A\	.	p	4a/	.	4cc\	p	8r	.	.	.	8r	.
.	.	.	.	.	.	.	8c\	A-	.	.	8ee\	A-
8r	.	.	8r	.	8r	.	8B\L	-gnus	.	.	8dd\L	-gnus
8A\L	.	.	8a/L	.	8cc\L	.	8A\	.	.	.	8cc\	.
8G#X\	.	.	8g#X/	.	8b\	.	8G#X\	.	.	.	8b\	.
8A\J	.	.	8a/J	.	8cc\J	.	8A\J	.	.	.	8cc\J	.
!LO:LB:g=original	!	!	!LO:LB:g=original	!	!	!	!	!	!	!	!	!
=8	=8	=8	=8	=8	=8	=8	=8	=8	=8	=8	=8	=8
4A\	.	.	4a/	.	4cc\	.	8r	.	.	.	8r	.
.	.	.	.	.	.	.	8c\L	De-	.	.	8ee\	De
8r	.	.	8r	.	8r	.	8B\	.	.	.	8dd\L	.
8A\L	.	.	8a/L	.	8cc\L	.	8A\J	.	.	.	8cc\	.
8G#X\	.	.	8g#X/	.	8b\	.	8G#X/L	.	.	.	8b\	.
8A\J	.	.	8a/J	.	8cc\J	.	8A\J	-i	.	.	8cc\J	i
=9	=9	=9	=9	=9	=9	=9	=9	=9	=9	=9	=9	=9
!	!	!	!	!	!	!	!	!	!LO:N:vis=00	!	!	!
4B\	.	.	4b/	.	4dd\	.	8r	.	0.r	.	8r	.
.	.	.	.	.	.	.	8d\	qui	.	.	8ff\	qui
!	!	!	!	!	!	!	!	!	!	!	!LO:SIC:l:s=tol-:v	!
8r	.	.	8r	.	8r	.	8c\L	tol-	.	.	8ee\L	to-
8B\L	.	.	8b\L	.	8dd\L	.	8B\J	.	.	.	8dd\J	.
8A#X\	.	.	8a#X/	.	8cc#X\	.	8A#X\L	-lis	.	.	8cc#X\L	-lis
8B\J	.	.	8b\J	.	8dd\J	.	8B\J	.	.	.	8dd\J	.
=10	=10	=10	=10	=10	=10	=10	=10	=10	=10	=10	=10	=10
4B\	.	.	4b/	.	4dd\	.	8r	.	.	.	8r	.
.	.	.	.	.	.	.	8d\	pec-	.	.	8ff\	pec-
8r	.	.	8r	.	8r	.	8c\L	-ca-	.	.	8ee\L	-ca-
8B\L	.	.	8b\L	.	8dd\L	.	8B\J	.	.	.	8dd\J	.
8A#X\	.	.	8a#X/	.	8cc#X\	.	8A#X\L	-ta	.	.	8cc#X\L	-ta
8B\J	.	.	8b\J	.	8dd\J	.	8B\J	.	.	.	8dd\J	.
!	!	!	!	!	!	!	!	!	!	!	!LO:LB:g=original	!
=11	=11	=11	=11	=11	=11	=11	=11	=11	=11	=11	=11	=11
4c\	.	.	4cc\	.	4ee\	.	8r	.	.	.	8r	.
.	.	.	.	.	.	.	8e\	pec-	.	.	8gg\	pec-
!	!	!	!	!	!	!	!LO:LB:g=original	!	!	!	!	!
4r	.	.	4r	.	4r	.	8d\L	-ca-	.	.	8ff\L	-ca-
.	.	.	.	.	.	.	8c\J	.	.	.	8ee\J	.
8D\L	6	.	8b\L	.	8dd\L	.	8B\L	-ta	.	.	8dd\L	-ta
8D#X\J	7 5	.	8a/J	.	8cc\J	.	8A\J	.	.	.	8ccn\J	.
=12	=12	=12	=12	=12	=12	=12	=12	=12	=12	=12	=12	=12
4E\	6 4	.	8.a/L	.	8.cc\L	.	8.A\L	mun-	.	.	8.cc\L	mun-
.	.	.	32g#X/LL	.	32b\LL	.	32G#X/LL	.	.	.	32b\LL	.
.	.	.	32a/JJJ	.	32cc\JJJ	.	32A\JJJ	.	.	.	32cc\JJJ	.
4EE/	5 #	.	4g#X/	.	4b\	.	4G#X/	-di	.	.	4b\	-di
4r	.	.	4r	.	4r	.	8B\	Mi-	.	.	8dd\	Mi-
.	.	.	.	.	.	.	8c\	-se-	.	.	8ee\	-se-
=13	=13	=13	=13	=13	=13	=13	=13	=13	=13	=13	=13	=13
*	*	*	*	*	*	*	*2\right	*	*	*	*2\right	*
!	!	!	!	!	!	!	!	!	!LO:N:vis=00	!	!	!
8r	.	.	8r	.	8r	.	2d\	-re-	0.r	.	2ff\	-re-
8G\L	7	.	8gn/L	.	8b\L	.	.	.	.	.	.	.
8G\	.	.	8g/	.	8b\	.	.	.	.	.	.	.
8G\	.	.	8g/J	.	8b\	.	.	.	.	.	.	.
8G#X\	.	.	8b\L	.	8dd\	.	4d\	-re	.	.	4ff\	-re
8G#\J	.	.	8b\J	.	8dd\J	.	.	.	.	.	.	.
=14	=14	=14	=14	=14	=14	=14	=14	=14	=14	=14	=14	=14
*	*	*	*2\right	*	*2\right	*	*	*	*	*	*	*
8A\L	.	.	2cc\	.	2ee\	.	2c\	no-	.	.	2ee\	no-
8B\	.	.	.	.	.	.	.	.	.	.	.	.
8c\	.	.	.	.	.	.	.	.	.	.	.	.
8d\	.	.	.	.	.	.	.	.	.	.	.	.
8e\	.	.	4a/	.	4cc\	.	4A\	-bis	.	.	4cc\	-bis
8c\J	.	.	.	.	.	.	.	.	.	.	.	.
!	!	!	!	!	!LO:LB:g=original	!	!	!	!	!	!	!
=15	=15	=15	=15	=15	=15	=15	=15	=15	=15	=15	=15	=15
4d\	.	.	8r	.	8r	.	4B/	no-	.	.	4dd\	no-
.	.	.	8b/	.	8dd\	.	.	.	.	.	.	.
4e\	7	.	8r	.	8r	.	4A/	.	.	.	4cc\	.
.	.	.	8a/	.	8cc\	.	.	.	.	.	.	.
4E\	.	.	8r	.	8r	.	4G#X/	.	.	.	4b\	.
.	.	.	8g#X/	.	8b/	.	.	.	.	.	.	.
!LO:LB:g=original	!	!	!LO:PB:g=original	!	!	!	!	!	!	!	!	!
=16	=16	=16	=16	=16	=16	=16	=16	=16	=16	=16	=16	=16
8A\L	.	.	8a/L	.	8a/L	.	4A/	-bis	.	.	4a\	-bis
8A\	.	.	8a/J	.	8a/J	.	.	.	.	.	.	.
8Gn\	.	.	8gn/L	.	8g/L	.	4r	.	.	.	4r	.
8F\	.	.	8f/	.	8f/	.	.	.	.	.	.	.
8E\	.	.	8e/	.	8e/	.	4r	.	.	.	4r	.
8D\J	.	.	8d/J	.	8d/J	.	.	.	.	.	.	.
=17	=17	=17	=17	=17	=17	=17	=17	=17	=17	=17	=17	=17
*tremolo	*	*	*	*	*	*	*	*	*2\right	*	*	*
!	!	!LO:DY:b	!	!LO:DY:a:t=p.	!	!LO:DY:b:t=pia=	!LO:TX:a:t=12	!	!	!	!LO:TX:a:t=12	!
!	!	!	!	!	!	!	!	!	!	!	!LO:N:vis=00	!
8C/L	.	p	2ee\	p	2gg\	p	2.r	.	2g\	A-	0.r	.
8C/	.	.	.	.	.	.	.	.	.	.	.	.
8C/	.	.	.	.	.	.	.	.	.	.	.	.
8C/	.	.	.	.	.	.	.	.	.	.	.	.
8C/	.	.	4ee\	.	8ccc\L	.	.	.	8cc\L	-gnus	.	.
8C/J	.	.	.	.	8gg\J	.	.	.	8g\J	.	.	.
=18	=18	=18	=18	=18	=18	=18	=18	=18	=18	=18	=18	=18
8C/L	6 4	.	2ff\	.	2aa\	.	2.r	.	2a\	De-	.	.
8C/	.	.	.	.	.	.	.	.	.	.	.	.
8C/	.	.	.	.	.	.	.	.	.	.	.	.
8C/J	.	.	.	.	.	.	.	.	.	.	.	.
*Xtremolo	*	*	*	*	*	*	*	*	*	*	*	*
8C/L	6 4	.	4ee\	.	4gg\	.	.	.	4g\	-i	.	.
8C/J	5_ 3_	.	.	.	.	.	.	.	.	.	.	.
=19	=19	=19	=19	=19	=19	=19	=19	=19	=19	=19	=19	=19
4D/	6_ 3_	.	4dd\	.	4ff\	.	2.r	.	4f\	qui	.	.
2D/	.	.	4dd\	.	8ddd\L	.	.	.	8dd\L	.	.	.
.	.	.	.	.	8bb\	.	.	.	8b\J	.	.	.
.	.	.	4dd\	.	8gg\	.	.	.	8g\L	.	.	.
.	.	.	.	.	8ff\J	.	.	.	8f\J	.	.	.
=20	=20	=20	=20	=20	=20	=20	=20	=20	=20	=20	=20	=20
4D/	.	.	4dd\	.	4ff\	.	2.r	.	4f\	tol-	.	.
4C/	X X	.	4cc\	.	4ee\	.	.	.	4e\	-lis	.	.
4r	.	.	8ee\L	.	8gg\L	.	.	.	8g\L	pec-	.	.
.	.	.	8ff\J	.	8aa\J	.	.	.	8a\J	.	.	.
=21	=21	=21	=21	=21	=21	=21	=21	=21	=21	=21	=21	=21
!	!	!	!	!	!	!	!	!	!	!	!LO:N:vis=00	!
4E\	.	.	4ee\	.	4gg\	.	2.r	.	4g\	-ca-	0.r	.
4F\	6	.	4dd\	.	4ff\	.	.	.	4f\	.	.	.
4F#X\	7 5	.	4cc\	.	4ee\	.	.	.	4e\	-ta	.	.
=22	=22	=22	=22	=22	=22	=22	=22	=22	=22	=22	=22	=22
4G\	4	.	4cc\	.	4ee\	.	2.r	.	4cc\	mun-	.	.
4GG/	3	.	4b\	.	4dd\	.	.	.	4b\	-di	.	.
4r	.	.	8b\L	.	8dd\L	.	.	.	4r	.	.	.
.	.	.	8cc\J	.	8ee\J	.	.	.	.	.	.	.
!	!	!	!	!	!	!	!	!	!LO:LB:g=original	!	!	!
=23	=23	=23	=23	=23	=23	=23	=23	=23	=23	=23	=23	=23
*	*	*	*tremolo	*	*	*	*	*	*	*	*	*
*	*	*	*	*	*tremolo	*	*	*	*	*	*	*
4GG/	7	.	8dd\L	.	8ff\L	.	2.r	.	2dd\	Mi-	.	.
.	.	.	8dd\	.	8ff\	.	.	.	.	.	.	.
4BB/	.	.	8dd\	.	8ff\	.	.	.	.	.	.	.
.	.	.	8dd\J	.	8ff\J	.	.	.	.	.	.	.
*	*	*	*Xtremolo	*	*Xtremolo	*	*	*	*	*	*	*
!	!	!	!	!	!	!	!	!	!LO:TX:a:t=c	!	!	!
4C/	3	.	8cc\L	.	8ee\L	.	.	.	4cc\	-se-	.	.
.	.	.	8cc\J	.	8ee\J	.	.	.	.	.	.	.
!	!	!	!	!	!LO:LB:g=original	!	!	!	!	!	!	!
=24	=24	=24	=24	=24	=24	=24	=24	=24	=24	=24	=24	=24
*	*	*	*tremolo	*	*tremolo	*	*	*	*	*	*	*
4AA/	7_	.	8ee\L	.	8gg\L	.	2.r	.	2ee\	-re-	.	.
.	.	.	8ee\	.	8gg\	.	.	.	.	.	.	.
4C#X/	.	.	8ee\	.	8gg\	.	.	.	.	.	.	.
.	.	.	8ee\J	.	8gg\J	.	.	.	.	.	.	.
*	*	*	*Xtremolo	*	*Xtremolo	*	*	*	*	*	*	*
4D/	4	.	8dd\L	.	8ff\L	.	.	.	4dd\	-re	.	.
.	.	.	8dd\J	.	8ff\J	.	.	.	.	.	.	.
=25	=25	=25	=25	=25	=25	=25	=25	=25	=25	=25	=25	=25
!LO:TX:t=P:problem=mixed beam	!	!	!	!	!	!	!	!	!	!	!	!
!	!	!	!	!	!	!	!	!	!	!	!LO:N:vis=00	!
8G\L	6_	.	4ee\	.	4gg\	.	2.r	.	4ee\	No-	0.r	.
8G\	.	.	.	.	.	.	.	.	.	.	.	.
8A\	4	.	4dd\	.	4ff\	.	.	.	4dd\	.	.	.
8A\	.	.	.	.	.	.	.	.	.	.	.	.
8AA/	7	.	4cc#X\	.	4ee\	.	.	.	4cc#X\	.	.	.
8AA/J	.	.	.	.	.	.	.	.	.	.	.	.
!LO:LB:g=original	!	!	!LO:LB:g=original	!	!	!	!	!	!	!	!	!
=26	=26	=26	=26	=26	=26	=26	=26	=26	=26	=26	=26	=26
4D\	n_	.	4dd\	.	4ff\	.	2.r	.	4dd\	-bis	.	.
*	*	*	*tremolo	*	*tremolo	*	*	*	*	*	*	*
[4G\	.	.	8b\L	.	8dd\L	.	.	.	4b\	Mi-	.	.
.	.	.	8b\	.	8dd\	.	.	.	.	.	.	.
4G\]	.	.	8b\	.	8dd\	.	.	.	4b\	-se-	.	.
.	X	.	8b\J	.	8dd\J	.	.	.	.	.	.	.
=27	=27	=27	=27	=27	=27	=27	=27	=27	=27	=27	=27	=27
8c\L	.	.	2cc\	.	2ee\	.	2.r	.	2cc\	-re-	.	.
8c\J	.	.	.	.	.	.	.	.	.	.	.	.
*tremolo	*	*	*	*	*	*	*	*	*	*	*	*
8C/L	.	.	.	.	.	.	.	.	.	.	.	.
8C/	.	.	.	.	.	.	.	.	.	.	.	.
8C/	.	.	4ee\	.	4gg\	.	.	.	4cc\	-re	.	.
8C/J	.	.	.	.	.	.	.	.	.	.	.	.
*Xtremolo	*	*	*	*	*	*	*	*	*	*	*	*
=28	=28	=28	=28	=28	=28	=28	=28	=28	=28	=28	=28	=28
!LO:TX:t=P:problem=mixed beam	!	!	!	!	!	!	!	!	!	!	!	!
8F\L	.	.	4dd\	.	4ff\	.	2.r	.	4dd\	No-	.	.
8F\	.	.	.	.	.	.	.	.	.	.	.	.
8G\	4_	.	4cc\	.	4ee\	.	.	.	4cc\	.	.	.
8G\	.	.	.	.	.	.	.	.	.	.	.	.
8GG/	3_	.	4g/	.	4dd\	.	.	.	4b\	.	.	.
8GG/J	.	.	.	.	.	.	.	.	.	.	.	.
.	X	.	.	.	.	.	.	.	.	.	.	.
=29	=29	=29	=29	=29	=29	=29	=29	=29	=29	=29	=29	=29
!LO:TX:a:t=Tutti	!	!	!LO:TX:a:t=Tutti	!	!LO:TX:a:t=Tutti	!	!	!	!	!	!	!
4C/	.	.	4e/	.	4cc\	.	4r	.	4cc\	-bis	4r	.
4c\	.	.	4e/	.	4cc\	.	4G/	A-	4e\	a-	4cc\	A-
!	!	!	!	!	!	!	!	!	!	!	!LO:LB:g=original	!
4C/	.	.	4e/	.	4cc\	.	4G/	-gnus	4e\	-gnus	4cc\	-gnus
!	!	!	!	!	!	!	!LO:LB:g=original	!	!LO:LB:g=original	!	!	!
=30	=30	=30	=30	=30	=30	=30	=30	=30	=30	=30	=30	=30
2BB/	.	.	8d/L	.	8b\L	.	2G/	De-	2f\	De-	2b\	De-
.	.	.	8d/	.	8b\	.	.	.	.	.	.	.
.	.	.	8d/	.	8b\	.	.	.	.	.	.	.
.	.	.	8d/J	.	8b\J	.	.	.	.	.	.	.
4C/	.	.	4e/	.	4cc\	.	4G/	-i	4e\	-i	4cc\	-i
=31	=31	=31	=31	=31	=31	=31	=31	=31	=31	=31	=31	=31
*tremolo	*	*	*	*	*	*	*	*	*	*	*	*
8C/L	6 4	.	4f/	.	4a/	.	2.c\	qui	4f\	qui	(4a\	qui
8C/	.	.	.	.	.	.	.	.	.	.	.	.
8C/	.	.	4a/	.	4cc/	.	.	.	4a\	.	4cc\	.
8C/	.	.	.	.	.	.	.	.	.	.	.	.
8C/	.	.	4f/	.	4a/	.	.	.	4f\	.	4a\)	.
8C/J	.	.	.	.	.	.	.	.	.	.	.	.
=32	=32	=32	=32	=32	=32	=32	=32	=32	=32	=32	=32	=32
4c\	6 4	.	4f/	.	4a/	.	4c\	tol-	4f\	tol-	4a\	tol-
4C/	5 3	.	4e/	.	4g/	.	4c\	-lis	4e\	-lis	4g\	-lis
4r	.	.	4r	.	4f/	.	4r	.	4d\	pec-	4f/	pec-
=33	=33	=33	=33	=33	=33	=33	=33	=33	=33	=33	=33	=33
*2\right	*	*	*	*	*	*	*	*	*	*	*	*
8G\L	5	.	8f/L	.	8dd\L	.	4B\	pec-	2f\	-ca-	2dd\	-ca-
8G\	.	.	8d/J	.	8b\	.	.	.	.	.	.	.
!	!	!	!LO:TX:t=P:problem=mixed beam	!	!	!	!	!	!	!	!	!
8G\	.	.	8dd\L	.	8ff\	.	4B\	-ca-	.	.	.	.
8G\	.	.	8f/	.	8dd\	.	.	.	.	.	.	.
8G\	.	.	8e/	.	8cc\	.	4B\	-ta	4f\	-ta	4dd\	-ta
8G\J	.	.	8d/J	.	8b\J	.	.	.	.	.	.	.
=34	=34	=34	=34	=34	=34	=34	=34	=34	=34	=34	=34	=34
4G\	.	.	4d/	.	4dd\	.	4B\	mun-	4f\	mun-	4dd\	mun-
4c\	.	.	4e/	.	4cc\	.	4c\	-di	4e\	-di	4cc\	-di
4r	.	.	8e/L	.	8cc\L	.	4r	.	4r	.	4r	.
.	.	.	8g/J	.	8dd\J	.	.	.	.	.	.	.
=35	=35	=35	=35	=35	=35	=35	=35	=35	=35	=35	=35	=35
8c\L	n3	.	8g/L	.	8ee-X\L	.	2c\	Mi-	2g\	Mi-	2ee-X\	Mi-
8c\	.	.	8g/	.	8ee-X\	.	.	.	.	.	.	.
8c\	.	.	8g/	.	8ee-X\	.	.	.	.	.	.	.
8c\	.	.	8g/	.	8ee-X\	.	.	.	.	.	.	.
8c\	.	.	8g/	.	8ee-X\	.	4c\	-se-	4g\	-se-	4ee-\	-se-
8c\J	.	.	8g/J	.	8ee-X\J	.	.	.	.	.	.	.
*	*	*	*Xtremolo	*	*	*	*	*	*	*	*	*
!	!	!	!	!	!LO:LB:g=original	!	!	!	!	!	!	!
=36	=36	=36	=36	=36	=36	=36	=36	=36	=36	=36	=36	=36
!	!	!	!	!	!	!	!	!	!	!	!LO:SIC:s=4ee-:v	!
8c\L	n3	.	8g/L	.	8ee-X\L	.	4c\	-re-	4g\	-re-	4ee\	-re-
8c\	.	.	8g/	.	8ee-X\	.	.	.	.	.	.	.
!	!	!	!	!	!	!	!	!	!	!	!LO:SIC:s=4ee-:v	!
8A-X\	.	.	8a-X/	.	8ee-X\	.	4c\	-re	4a-X\	-re	4ee\	-re
8A-\	.	.	8a-/	.	8ee-X\	.	.	.	.	.	.	.
!	!	!	!	!	!	!	!	!	!	!	!LO:SIC:s=4ee-:v	!
8G\	.	.	8g/	.	8ee-X\	.	4c\	no-	8g\L	no-	4ee\	no-
8F#X\J	.	.	8f#X/J	.	8ee-X\J	.	.	.	8f#X\J	.	.	.
*	*	*	*	*	*Xtremolo	*	*	*	*	*	*	*
!LO:LB:g=original	!	!	!LO:LB:g=original	!	!	!	!	!	!LO:LB:g=original	!	!	!
=37	=37	=37	=37	=37	=37	=37	=37	=37	=37	=37	=37	=37
2.G\;	.	.	2.g/;	.	2.dd\;	.	2.B\;	-bis	2.g\;	-bis	2.dd\	-bis
!	!	!	!	!	!	!	!LO:LB:g=original	!	!	!	!LO:LB:g=original	!
=38||	=38||	=38||	=38||	=38||	=38||	=38||	=38||	=38||	=38||;	=38||	=38||	=38||
*M3/8	*	*	*M3/8	*	*M3/8	*	*M3/8	*	*M3/8	*	*M3/8	*
!LO:TX:a:i:t=allo	!	!	!LO:TX:b:i:t=Dona Nobis.	!	!LO:TX:b:i:t=Dona Nobis	!	!	!	!	!	!	!
!LO:TX:b:i:t=Dona Nobis=	!	!	!LO:TX:a:i:t=allo.	!	!LO:TX:a:i:t=allo.	!	!LO:TX:a:i:t=allo.	!	!LO:TX:a:i:t=allo.	!	!LO:TX:a:i:t=allo	!
8C/L	.	.	8c/L	.	16ee\LL	.	4G/	Do-	4e\	Do-	4cc\	Do-
.	.	.	.	.	16ff\	.	.	.	.	.	.	.
8E\	.	.	8e/	.	16gg\	.	.	.	.	.	.	.
.	.	.	.	.	16ff\	.	.	.	.	.	.	.
8G\J	5	.	8g/J	.	16ee\	.	8B\	-na	8g\	-na	8dd\	-na
.	.	.	.	.	16dd\JJ	.	.	.	.	.	.	.
=39	=39	=39	=39	=39	=39	=39	=39	=39	=39	=39	=39	=39
!LO:TX:t=P:problem=mixed beam	!	!	!	!	!	!	!	!	!	!	!	!
8c\L	.	.	8e/L	.	8cc\L	.	8c\	no-	8g\	no-	8ee\	no-
8C/J	.	.	8e/	.	8cc\	.	8c\	-bis	8g\	-bis	8ee\	-bis
8r	.	.	8e/J	.	8cc\J	.	8r	.	8r	.	8r	.
=40	=40	=40	=40	=40	=40	=40	=40	=40	=40	=40	=40	=40
8G\L	.	.	8g/L	.	16dd\LL	.	4B\	Do-	4f\	Do-	4dd\	Do-
.	.	.	.	.	16cc\	.	.	.	.	.	.	.
8B\	.	.	8b\	.	16dd\	.	.	.	.	.	.	.
.	.	.	.	.	16ee\	.	.	.	.	.	.	.
8c\J	.	.	8cc\J	.	16ff\	.	8c\	-na	8g\	-na	8ee\	-na
.	.	.	.	.	16gg\JJ	.	.	.	.	.	.	.
=41	=41	=41	=41	=41	=41	=41	=41	=41	=41	=41	=41	=41
8c\L	6 4	.	4ff\	.	4aa\	.	4c\	No-	4a\	no-	4ff\	no-
8c\	.	.	.	.	.	.	.	.	.	.	.	.
8c\J	.	.	8ff\	.	8aa\	.	8c\	-bis	8cc\	-bis	8aa\	-bis
=42	=42	=42	=42	=42	=42	=42	=42	=42	=42	=42	=42	=42
*	*	*	*tremolo	*	*	*	*	*	*	*	*	*
8c\L	5 3	.	16ee\LL	.	16gg\LL	.	4.e\	pa-	4.cc\	pa-	4.gg\	pa-
.	.	.	16ee\	.	16ccc\	.	.	.	.	.	.	.
8c\	.	.	16ee\	.	16ee\	.	.	.	.	.	.	.
.	.	.	16ee\	.	16gg\	.	.	.	.	.	.	.
8c\J	.	.	16ee\	.	16cc\	.	.	.	.	.	.	.
.	.	.	16ee\JJ	.	16ee\JJ	.	.	.	.	.	.	.
=43	=43	=43	=43	=43	=43	=43	=43	=43	=43	=43	=43	=43
8G\L	7	.	16dd\LL	.	16dd\LL	.	4.d\	-cem	4b\	-cem	4.ff\	-cem
.	.	.	16dd\	.	16ff\	.	.	.	.	.	.	.
8G\	.	.	16dd\	.	16b\	.	.	.	.	.	.	.
.	.	.	16dd\	.	16dd\	.	.	.	.	.	.	.
8G\J	.	.	16dd\	.	16g\	.	.	.	8g\	.	.	.
.	.	.	16dd\JJ	.	16b\JJ	.	.	.	.	.	.	.
*	*	*	*Xtremolo	*	*	*	*	*	*	*	*	*
=44	=44	=44	=44	=44	=44	=44	=44	=44	=44	=44	=44	=44
!LO:TX:t=P:problem=mixed beam	!	!	!	!	!	!	!	!	!	!	!	!
8c\L	.	.	8cc\L	.	16cc\LL	.	4c\	pa-	4g\	pa-	4ee\	pa-
.	.	.	.	.	16b\	.	.	.	.	.	.	.
8C/	.	.	8cc\	.	16cc\	.	.	.	.	.	.	.
.	.	.	.	.	16dd\	.	.	.	.	.	.	.
8D/J	#	.	8a\J	.	16ee\	.	8d\	-cem	8a\	-cem	8ff#X\	-cem
.	.	.	.	.	16ff#X\JJ	.	.	.	.	.	.	.
!	!	!	!	!	!LO:LB:g=original	!	!	!	!LO:LB:g=original	!	!	!
=45	=45	=45	=45	=45	=45	=45	=45	=45	=45	=45	=45	=45
!	!	!	!	!	!LO:TX:t=P:problem=mixed beam	!	!	!	!	!	!	!
8G\L	.	.	8b\L	.	8gg\L	.	8d\	pa-	8b\	pa-	8gg\	pa-
16G\L|	.	.	16b\L	.	8g/J	.	8d\	-cem	8b\	-cem	8gg\	-cem
16Fn\|	.	.	16f/	.	.	.	.	.	.	.	.	.
16E\|	.	.	16e/	.	8r	.	8r	.	8r	.	8r	.
16D\JJ|	.	.	16d/JJ	.	.	.	.	.	.	.	.	.
=46	=46	=46	=46	=46	=46	=46	=46	=46	=46	=46	=46	=46
8C/L	.	.	8c/L	.	16ee\LL	.	4G/	Do-	4e\	Do-	4cc\	Do-
.	.	.	.	.	16ffn\	.	.	.	.	.	.	.
8E\	.	.	8e/	.	16gg\	.	.	.	.	.	.	.
.	.	.	.	.	16ff\	.	.	.	.	.	.	.
8G\J	.	.	8g/J	.	16ee\	.	8B/	-na	8g\	-na	8dd\	-na
.	.	.	.	.	16dd\JJ	.	.	.	.	.	.	.
!	!	!	!	!	!	!	!LO:LB:g=original	!	!	!	!LO:LB:g=original	!
=47	=47	=47	=47	=47	=47	=47	=47	=47	=47	=47	=47	=47
!LO:TX:t=P:problem=mixed beam	!	!	!	!	!	!	!	!	!	!	!	!
8c\L	.	.	8e/L	.	8cc\L	.	8c\	no-	8g\	no-	8ee\	no-
8C/J	.	.	8e/	.	8cc\	.	8c\	-bis	8g\	-bis	8ee\	-bis
8r	.	.	8e/J	.	8cc\J	.	8r	.	8r	.	8r	.
!LO:LB:g=original	!	!	!LO:LB:g=original	!	!	!	!	!	!	!	!	!
=48	=48	=48	=48	=48	=48	=48	=48	=48	=48	=48	=48	=48
8G\L	.	.	8g/L	.	16dd\LL	.	4B\	Do-	4f\	Do-	4dd\	do-
.	.	.	.	.	16cc\	.	.	.	.	.	.	.
8B\	.	.	8b\	.	16dd\	.	.	.	.	.	.	.
.	.	.	.	.	16ee\	.	.	.	.	.	.	.
8c\J	.	.	8cc\J	.	16ff\	.	8c\	-na	8g\	-na	8ee\	-na
.	.	.	.	.	16gg\JJ	.	.	.	.	.	.	.
=49	=49	=49	=49	=49	=49	=49	=49	=49	=49	=49	=49	=49
8c\L	6 4	.	4ff\	.	4aa\	.	4c\	No-	4a\	no-	4ff\	no-
8c\	.	.	.	.	.	.	.	.	.	.	.	.
8c\J	.	.	8ff\	.	8aa\	.	8c\	-bis	8cc\	-bis	8aa\	-bis
=50	=50	=50	=50	=50	=50	=50	=50	=50	=50	=50	=50	=50
*	*	*	*tremolo	*	*	*	*	*	*	*	*	*
8c\L	5 3	.	16ee\LL	.	16gg\LL	.	4.e\	pa-	4.cc\	pa-	4.gg\	pa-
.	.	.	16ee\	.	16ccc\	.	.	.	.	.	.	.
8c\	.	.	16ee\	.	16ee\	.	.	.	.	.	.	.
.	.	.	16ee\	.	16gg\	.	.	.	.	.	.	.
8c\J	.	.	16ee\	.	16cc\	.	.	.	.	.	.	.
.	.	.	16ee\JJ	.	16ee\JJ	.	.	.	.	.	.	.
=51	=51	=51	=51	=51	=51	=51	=51	=51	=51	=51	=51	=51
8G\L	7	.	16dd\LL	.	16dd\LL	.	4.d\	-cem	4b\	.	4.ff\	-cem
.	.	.	16dd\	.	16ff\	.	.	.	.	.	.	.
8G\	.	.	16dd\	.	16b\	.	.	.	.	.	.	.
.	.	.	16dd\	.	16dd\	.	.	.	.	.	.	.
8G\J	.	.	16dd\	.	16g\	.	.	.	8g\	-cem	.	.
.	.	.	16dd\JJ	.	16b\JJ	.	.	.	.	.	.	.
*Xtremolo	*	*	*Xtremolo	*	*	*	*	*	*	*	*	*
=52	=52	=52	=52	=52	=52	=52	=52	=52	=52	=52	=52	=52
!LO:TX:t=P:problem=mixed beam	!	!	!	!	!	!	!	!	!	!	!	!
8c\L	.	.	8cc\L	.	16cc\LL	.	4c\	pa-	4g\	pa-	4ee\	pa-
.	.	.	.	.	16b\	.	.	.	.	.	.	.
8C/	.	.	8cc\	.	16cc\	.	.	.	.	.	.	.
.	.	.	.	.	16dd\	.	.	.	.	.	.	.
8D/J	.	.	8a\J	.	16ee\	.	8d\	-cem	8a\	-cem	8ff#X\	-cem
.	.	.	.	.	16ff#X\JJ	.	.	.	.	.	.	.
!	!	!	!	!	!	!	!	!	!LO:LB:g=original	!	!	!
=53	=53	=53	=53	=53	=53	=53	=53	=53	=53	=53	=53	=53
!LO:TX:t=P:problem=mixed beam	!	!	!	!	!LO:TX:t=P:problem=mixed beam	!	!	!	!	!	!	!
8G\L	.	.	8b\L	.	8gg\L	.	8d\	pa-	8b\	pa-	8gg\	pa-
8GG/J	.	.	8b\	.	8g/	.	8d\	-cem	8b\	-cem	8gg\	-cem
8r	.	.	8cc\J	.	8ee\J	.	8r	.	8cc\	Do-	8ee\	do-
!	!	!	!	!	!LO:LB:g=original	!	!	!	!	!	!	!
=54	=54	=54	=54	=54	=54	=54	=54	=54	=54	=54	=54	=54
!	!	!	!	!LO:DY:a:t=p.	!	!	!LO:TX:a:t=4	!	!	!	!	!
!	!	!	!	!	!	!	!LO:N:vis=00	!	!	!	!	!
8G\	.	.	8b\	p	8dd\	.	1.r	.	4b\	-na	4dd\	-na
8r	.	.	8r	.	8r	.	.	.	.	.	.	.
8r	.	.	8r	.	8r	.	.	.	16cc\LL	no-	16ee\LL	no-
.	.	.	.	.	.	.	.	.	16b\JJ	.	16dd\JJ	.
=55	=55	=55	=55	=55	=55	=55	=55	=55	=55	=55	=55	=55
8r	.	.	8r	.	8r	.	.	.	4.a\	-bis	4.cc\	-bis
8D/L	#	.	8d/L	.	8cc/L 8d/	.	.	.	.	.	.	.
8D/J	.	.	8d/J	.	8cc/J 8d/	.	.	.	.	.	.	.
!	!	!	!	!	!	!	!	!	!	!	!LO:PB:g=original	!
=56	=56	=56	=56	=56	=56	=56	=56	=56	=56	=56	=56	=56
8D/	.	.	8d/	.	8cc/ 8d/	.	.	.	4a\	pa-	4cc\	pa-
8r	.	.	8r	.	8r	.	.	.	.	.	.	.
8r	.	.	8r	.	8r	.	.	.	16b\LL	.	16dd\LL	.
.	.	.	.	.	.	.	.	.	16a\JJ	.	16cc\JJ	.
=57	=57	=57	=57	=57	=57	=57	=57	=57	=57	=57	=57	=57
8r	.	.	8r	.	8r	.	.	.	8g\	-cem	8b\	-cem
!	!	!	!	!	!LO:TX:t=P:problem=mixed beam	!	!	!	!	!	!	!
8D\L	6 4	.	8g/L	.	8g/L	.	.	.	8b\	Do-	8dd\	do-
!	!	!	!	!	!	!	!LO:TX:b:t=Vertatur	!	!	!	!	!
8G\J	.	.	8b\J	.	8dd\J	.	.	.	8b\	-na	8gg\	-na
!	!	!	!	!	!	!	!LO:PB:g=original	!	!	!	!	!
=58	=58	=58	=58	=58	=58	=58	=58	=58	=58	=58	=58	=58
!LO:TX:t=P:problem=mixed beam	!	!	!	!LO:DY:a:t=for	!	!	!	!	!	!	!	!
8c\L	.	.	8cc\L	f	16ee\LL	.	4c\	no-	4g\	no-	4ee\	no-
.	.	.	.	.	16dd#X\	.	.	.	.	.	.	.
8C/	.	.	8cc\	.	16ee\	.	.	.	.	.	.	.
.	.	.	.	.	16gg\	.	.	.	.	.	.	.
8D/J	.	.	8a\J	.	16ff#X\	.	8d\	-bis	8a\	-bis	8ff#X\	-bis
.	.	.	.	.	16aa\JJ	.	.	.	.	.	.	.
=59	=59	=59	=59	=59	=59	=59	=59	=59	=59	=59	=59	=59
!LO:TX:a:t=Repet&colon;	!	!	!	!	!	!	!	!	!	!	!	!
!LO:TX:t=P:problem=mixed beam	!	!	!	!	!	!	!	!	!	!	!	!
8G\L	.	.	8b\L	.	8gg\L	.	8d\	pa-	8b\	pa-	8gg\	pa-
8GG/J	.	.	8b\	.	8dd\	.	8g\	-cem	8b\	-cem	8dd\	-cem
8r	.	.	8b\J	.	8dd\J	.	8r	.	8r	.	8r	.
!	!	!	!LO:LB:g=original	!	!	!	!	!	!LO:LB:g=original	!	!	!
=60	=60	=60	=60	=60	=60	=60	=60	=60	=60	=60	=60	=60
*	*	*	*tremolo	*	*	*	*	*	*	*	*	*
!LO:TX:t=P:problem=takty 60-61 zapisane repetycją	!	!	!	!	!	!	!	!	!	!	!	!
!LO:TX:t=P:problem=mixed beam	!	!	!	!	!LO:TX:t=P:problem=takty 60-61 zapisane repetycją	!	!	!	!	!	!	!
8c\Lyy	.	.	16cc\LL	.	16ee\LLyy	.	16c\	Do-	16g\	Do-	16ee\	Do-
.	.	.	16cc\	.	16dd#Xyy\	.	16c\	-na	16g\	-na	16ee\	-na
8Cyy/	.	.	16cc\	.	16eeyy\	.	8c\	no-	8g\	no-	8ee\	no-
.	.	.	16cc\JJ	.	16ggyy\	.	.	.	.	.	.	.
*	*	*	*Xtremolo	*	*	*	*	*	*	*	*	*
8D/Jyy	#	.	16a/LL	.	16ff#Xyy\	.	8d\	-bis	8a\	-bis	8ff#X\	-bis
.	.	.	16a/JJ	.	16aa\JJyy	.	.	.	.	.	.	.
=61	=61	=61	=61	=61	=61	=61	=61	=61	=61	=61	=61	=61
*	*	*	*tremolo	*	*	*	*	*	*	*	*	*
!LO:TX:t=P:problem=mixed beam	!	!	!	!	!	!	!	!	!	!	!	!
8G\Lyy	.	.	16b\LL	.	8gg\Lyy	.	8d\	pa-	8b\	pa-	8gg\	pa-
.	.	.	16b\	.	.	.	.	.	.	.	.	.
8GG/Jyy	.	.	16b\	.	8ddyy\	.	4g\	-cem	4b\	-cem	4dd\	-cem
.	.	.	16b\	.	.	.	.	.	.	.	.	.
8ryy	.	.	16b\	.	8dd\Jyy	.	.	.	.	.	.	.
.	.	.	16b\JJ	.	.	.	.	.	.	.	.	.
*	*	*	*Xtremolo	*	*	*	*	*	*	*	*	*
=62	=62	=62	=62	=62	=62	=62	=62	=62	=62	=62	=62	=62
!LO:TX:t=P:problem=mixed beam	!	!	!	!	!	!	!LO:TX:t=P:problem=takty 62-63 zapisane repetycją	!	!	!	!	!
8c\L	.	.	8cc\L	.	16ee\LL	.	16cyy\	Do-	16g\	Do-	16ee\	Do-
.	.	.	.	.	16dd#X\	.	16cyy\	-na	16g\	-na	16ee\	-na
!	!	!	!	!	!	!	!	!	!	!	!LO:LB:g=original	!
8C/	.	.	8cc\	.	16ee\	.	8cyy\	no-	8g\	no-	8ee\	no-
.	.	.	.	.	16gg\	.	.	.	.	.	.	.
8D/J	#	.	8a\J	.	16ff#X\	.	8dyy\	-bis	8a\	-bis	8ff#X\	-bis
.	.	.	.	.	16aa\JJ	.	.	.	.	.	.	.
!LO:LB:g=original	!	!	!	!	!	!	!	!	!	!	!	!
=63	=63	=63	=63	=63	=63	=63	=63	=63	=63	=63	=63	=63
*	*	*	*tremolo	*	*	*	*	*	*	*	*	*
!LO:TX:t=P:problem=mixed beam	!	!	!	!	!	!	!	!	!	!	!	!
8G\L	.	.	16b\LL	.	8gg\L	.	8d\yy	pa-	8b\	pa-	8gg\	pa-
.	.	.	16b\	.	.	.	.	.	.	.	.	.
8GG/	.	.	16b\	.	8dd\	.	4gyy\	-cem	8b\	-cem	4dd\	-cem
.	.	.	16b\	.	.	.	.	.	.	.	.	.
8GG/J	.	.	16b\	.	8dd\J	.	.	.	8r	.	.	.
.	.	.	16b\JJ	.	.	.	.	.	.	.	.	.
*	*	*	*Xtremolo	*	*	*	*	*	*	*	*	*
=64	=64	=64	=64	=64	=64	=64	=64	=64	=64	=64	=64	=64
8BB/L	.	.	8b\L	.	8dd\L	.	8B\L	pa-	8b\L	pa-	8dd\	pa-
8C/	6	.	8a/	.	8cc\	.	8c\	.	8a\	.	8cc\	.
8C#X/J	7 5	.	8g/J	.	8b\J	.	8c#X\J	.	8g\J	.	8b\	.
=65	=65	=65	=65	=65	=65	=65	=65	=65	=65	=65	=65	=65
8D\	#	.	8f#X/	.	8a/	.	8d\	-cem	8f#X\	-cem	8a\	-cem
8r	.	.	8r	.	8r	.	8r	.	8r	.	8dd\	Do-
8r	.	.	8r	.	8r	.	8r	.	8r	.	8dd\	-na
!	!	!	!	!	!	!	!	!	!LO:LB:g=original	!	!	!
=66	=66	=66	=66	=66	=66	=66	=66	=66	=66	=66	=66	=66
!	!	!	!LO:TX:t=P:problem=mixed beam	!	!LO:TX:t=P:problem=mixed beam	!	!	!	!	!	!	!
8D\L	.	.	16d/LL	.	16d/LL	.	4.A\	no-	4.f#X\	no-	4.cc\	No-
.	.	.	16cc\	.	16cc\	.	.	.	.	.	.	.
8F#X\	.	.	16b\	.	16b\	.	.	.	.	.	.	.
.	.	.	16cc\	.	16cc\	.	.	.	.	.	.	.
8D\J	.	.	16dd\	.	16dd\	.	.	.	.	.	.	.
.	.	.	16cc\JJ	.	16cc\JJ	.	.	.	.	.	.	.
!	!	!	!	!	!LO:LB:g=original	!	!LO:LB:g=original	!	!	!	!	!
=67	=67	=67	=67	=67	=67	=67	=67	=67	=67	=67	=67	=67
8G\L	.	.	16b\LL	.	16b\LL	.	4.d\	-bis	4.g\	-bis	4.b\	-bis
.	.	.	16dd\	.	16dd\	.	.	.	.	.	.	.
8B\	.	.	16cc\	.	16cc\	.	.	.	.	.	.	.
.	.	.	16b\	.	16b\	.	.	.	.	.	.	.
8G\J	.	.	16a\	.	16a\	.	.	.	.	.	.	.
.	.	.	16g\JJ	.	16g\JJ	.	.	.	.	.	.	.
=68	=68	=68	=68	=68	=68	=68	=68	=68	=68	=68	=68	=68
8D\L	.	.	16f#X/LL	.	16f#X/LL	.	4.A\	pa-	4.f#X\	pa-	4.cc\	pa-
.	.	.	16g/	.	16g/	.	.	.	.	.	.	.
8F#X\	.	.	16a/	.	16a/	.	.	.	.	.	.	.
.	.	.	16b\	.	16b\	.	.	.	.	.	.	.
8D\J	.	.	16cc\	.	16cc\	.	.	.	.	.	.	.
.	.	.	16a/JJ	.	16a/JJ	.	.	.	.	.	.	.
=69	=69	=69	=69	=69	=69	=69	=69	=69	=69	=69	=69	=69
8G\L	.	.	8g/L	.	8b\L	.	4.d\	-cem	4.g\	-cem	4.b\	-cem
8B\	.	.	8b\	.	8dd\	.	.	.	.	.	.	.
8G\J	.	.	8b\J	.	8dd\J	.	.	.	.	.	.	.
!	!	!	!LO:LB:g=original	!	!	!	!	!	!	!	!	!
=70	=70	=70	=70	=70	=70	=70	=70	=70	=70	=70	=70	=70
8D\L	.	.	8a\L	.	8dd\L	.	4d\	Do-	4a\	Do-	4ff#X\	do-
8F#X\	.	.	8aa\	.	8ccc\	.	.	.	.	.	.	.
8D\J	.	.	8aa\J	.	8ccc\J	.	8d\	-na	8a\	-na	8ff#\	-na
=71	=71	=71	=71	=71	=71	=71	=71	=71	=71	=71	=71	=71
!	!	!	!LO:TX:t=P:problem=mixed beam	!	!	!	!	!	!	!	!	!
8G\L	.	.	8gg\L	.	16bb\LL	.	4d\	no-	4b\	no-	4gg\	no-
.	.	.	.	.	16ddd\	.	.	.	.	.	.	.
8B\	.	.	8b/ 8d/	.	16ccc\	.	.	.	.	.	.	.
.	.	.	.	.	16bb\	.	.	.	.	.	.	.
8G\J	.	.	8b/J 8d/	.	16aa\	.	8d\	-bis	8b\	-bis	8gg\	-bis
.	.	.	.	.	16gg\JJ	.	.	.	.	.	.	.
!	!	!	!	!	!	!	!	!	!	!	!LO:LB:g=original	!
=72	=72	=72	=72	=72	=72	=72	=72	=72	=72	=72	=72	=72
!LO:TX:t=P:problem=mixed beam	!	!	!	!	!	!	!	!	!	!	!	!
8c\L	6	.	8a/L 8d/	.	16ff#X\LL	.	4.d\	pa-	4cc\	pa-	4aa\	pa-
.	.	.	.	.	16gg\	.	.	.	.	.	.	.
8d\	#	.	8a/ 8d/	.	16aa\	.	.	.	.	.	.	.
.	.	.	.	.	16bb\	.	.	.	.	.	.	.
8D/J	.	.	8a/J 8d/	.	16ccc\	.	.	.	8a\	.	8ff#X\	.
.	.	.	.	.	16aa\JJ	.	.	.	.	.	.	.
=73	=73	=73	=73	=73	=73	=73	=73	=73	=73	=73	=73	=73
4G\	.	.	4b/ 4d/	.	4gg\	.	4d\	-cem	4b\	-cem	4gg\	-cem
!LO:TX:t=P:problem=znak obustronnej repetycji	!	!	!LO:TX:t=P:problem=znak obustronnej repetycji	!	!LO:TX:t=P:problem=znak repetycji	!	!	!	!	!	!	!
8r	.	.	8r	.	8r	.	8r	.	8r	.	8r	.
=74	=74	=74	=74	=74	=74	=74	=74	=74	=74	=74	=74	=74
!LO:TX:t=P:problem=takty 74-109 zapisane repetycją	!	!	!LO:TX:t=P:problem=takty 74-109 zapisane repetycją	!	!LO:TX:t=P:problem=takty 74-109 zapisane repetycją	!	!	!	!	!	!	!
8C/Lyy	.	.	8c/Lyy	.	16ee\LLyy	.	4G/	Do-	4e\	Do-	4cc\	Do-
.	.	.	.	.	16ff\yy	.	.	.	.	.	.	.
8E\yy	.	.	8e/yy	.	16gg\yy	.	.	.	.	.	.	.
.	.	.	.	.	16ff\yy	.	.	.	.	.	.	.
8G\Jyy	5	.	8g/Jyy	.	16ee\yy	.	8B\	-na	8g\	-na	8dd\	-na
.	.	.	.	.	16dd\JJyy	.	.	.	.	.	.	.
=75	=75	=75	=75	=75	=75	=75	=75	=75	=75	=75	=75	=75
!LO:TX:t=P:problem=mixed beam	!	!	!	!	!	!	!	!	!	!	!	!
8c\Lyy	.	.	8e/Lyy	.	8cc\Lyy	.	8c\	no-	8g\	no-	8ee\	no-
8C/Jyy	.	.	8e/yy	.	8cc\yy	.	8c\	-bis	8g\	-bis	8ee\	-bis
8ryy	.	.	8e/Jyy	.	8cc\Jyy	.	8r	.	8r	.	8r	.
!	!	!	!	!	!	!	!	!	!LO:LB:g=original	!	!	!
=76	=76	=76	=76	=76	=76	=76	=76	=76	=76	=76	=76	=76
8G\Lyy	.	.	8g/Lyy	.	16dd\LLyy	.	4B\	Do-	4f\	Do-	4dd\	do-
.	.	.	.	.	16cc\yy	.	.	.	.	.	.	.
8B\yy	.	.	8b\yy	.	16dd\yy	.	.	.	.	.	.	.
.	.	.	.	.	16ee\yy	.	.	.	.	.	.	.
8c\Jyy	.	.	8cc\Jyy	.	16ff\yy	.	8c\	-na	8g\	-na	8ee\	-na
.	.	.	.	.	16gg\JJyy	.	.	.	.	.	.	.
=77	=77	=77	=77	=77	=77	=77	=77	=77	=77	=77	=77	=77
*tremolo	*	*	*	*	*	*	*	*	*	*	*	*
8c\Lyy	6 4	.	4ff\yy	.	4aa\yy	.	4c\	No-	4a\	No-	4ff\	no-
8c\yy	.	.	.	.	.	.	.	.	.	.	.	.
8c\Jyy	.	.	8ff\yy	.	8aa\yy	.	8c\	-bis	8cc\	-bis	8aa\	-bis
!	!	!	!	!	!	!	!LO:LB:g=original	!	!	!	!	!
=78	=78	=78	=78	=78	=78	=78	=78	=78	=78	=78	=78	=78
*	*	*	*tremolo	*	*	*	*	*	*	*	*	*
8c\Lyy	5 3	.	16ee\LLyy	.	16gg\LLyy	.	4.e\	pa-	4.cc\	pa-	4.gg\	pa-
.	.	.	16ee\yy	.	16ccc\yy	.	.	.	.	.	.	.
8c\yy	.	.	16ee\yy	.	16ee\yy	.	.	.	.	.	.	.
.	.	.	16ee\yy	.	16gg\yy	.	.	.	.	.	.	.
8c\Jyy	.	.	16ee\yy	.	16cc\yy	.	.	.	.	.	.	.
.	.	.	16ee\JJyy	.	16ee\JJyy	.	.	.	.	.	.	.
=79	=79	=79	=79	=79	=79	=79	=79	=79	=79	=79	=79	=79
8G\Lyy	7	.	16dd\LLyy	.	16dd\LLyy	.	4.d\	-cem	4b\	.	4.ff\	-cem
.	.	.	16dd\yy	.	16ff\yy	.	.	.	.	.	.	.
8G\yy	.	.	16dd\yy	.	16b\yy	.	.	.	.	.	.	.
.	.	.	16dd\yy	.	16dd\yy	.	.	.	.	.	.	.
8G\Jyy	.	.	16dd\yy	.	16g\yy	.	.	.	8g\	-cem	.	.
.	.	.	16dd\JJyy	.	16b\JJyy	.	.	.	.	.	.	.
*	*	*	*Xtremolo	*	*	*	*	*	*	*	*	*
=80	=80	=80	=80	=80	=80	=80	=80	=80	=80	=80	=80	=80
!LO:TX:t=P:problem=mixed beam	!	!	!	!	!	!	!	!	!	!	!	!
8c\Lyy	.	.	8cc\Lyy	.	16cc\LLyy	.	4c\	pa-	4g\	pa-	4ee\	pa-
.	.	.	.	.	16b\yy	.	.	.	.	.	.	.
8C/yy	.	.	8cc\yy	.	16cc\yy	.	.	.	.	.	.	.
.	.	.	.	.	16dd\yy	.	.	.	.	.	.	.
8D/Jyy	#	.	8a\Jyy	.	16ee\yy	.	8d\	-cem	8a\	-cem	8ff#X\	-cem
.	.	.	.	.	16ff#X\JJyy	.	.	.	.	.	.	.
!	!	!	!	!	!LO:LB:g=original	!	!	!	!	!	!	!
=81	=81	=81	=81	=81	=81	=81	=81	=81	=81	=81	=81	=81
!	!	!	!	!	!LO:TX:t=P:problem=mixed beam	!	!	!	!	!	!	!
8G\Lyy	.	.	8b\Lyy	.	8gg\Lyy	.	8d\	pa-	8b\	pa-	8gg\	pa-
16G\Lyy|	.	.	16b\Lyy	.	8g/Jyy	.	8d\	-cem	8b\	-cem	8gg\	-cem
16Fn\yy|	.	.	16f/yy	.	.	.	.	.	.	.	.	.
16E\yy|	.	.	16e/yy	.	8ryy	.	8r	.	8r	.	8r	.
16D\JJyy|	.	.	16d/JJyy	.	.	.	.	.	.	.	.	.
=82	=82	=82	=82	=82	=82	=82	=82	=82	=82	=82	=82	=82
8C/Lyy	.	.	8c/Lyy	.	16ee\LLyy	.	4G/	Do-	4e\	Do-	4cc\	do-
.	.	.	.	.	16ffn\yy	.	.	.	.	.	.	.
8E/yy	.	.	8e/yy	.	16gg\yy	.	.	.	.	.	.	.
.	.	.	.	.	16ff\yy	.	.	.	.	.	.	.
8G/Jyy	.	.	8g/Jyy	.	16ee\yy	.	8B\	-na	8g\	-na	8dd\	-na
.	.	.	.	.	16dd\JJyy	.	.	.	.	.	.	.
!	!	!	!	!	!	!	!	!	!	!	!LO:LB:g=original	!
=83	=83	=83	=83	=83	=83	=83	=83	=83	=83	=83	=83	=83
!LO:TX:t=P:problem=mixed beam	!	!	!	!	!	!	!	!	!	!	!	!
8c\Lyy	.	.	8e/Lyy	.	8cc\Lyy	.	8c\	no-	8g\	no-	8ee\	no-
8C/Jyy	.	.	8e/yy	.	8cc\yy	.	8c\	-bis	8g\	-bis	8ee\	-bis
8ryy	.	.	8e/Jyy	.	8cc\Jyy	.	8r	.	8r	.	8r	.
!LO:LB:g=original	!	!	!LO:LB:g=original	!	!	!	!	!	!	!	!	!
=84	=84	=84	=84	=84	=84	=84	=84	=84	=84	=84	=84	=84
8G\Lyy	.	.	8g/Lyy	.	16dd\LLyy	.	4B\	do-	4f\	Do-	4dd\	Do-
.	.	.	.	.	16cc\yy	.	.	.	.	.	.	.
8B\yy	.	.	8b\yy	.	16dd\yy	.	.	.	.	.	.	.
.	.	.	.	.	16ee\yy	.	.	.	.	.	.	.
8c\Jyy	.	.	8cc\Jyy	.	16ff\yy	.	8c\	-na	8g\	-na	8ee\	-na
.	.	.	.	.	16gg\JJyy	.	.	.	.	.	.	.
!	!	!	!	!	!	!	!	!	!LO:PB:g=original	!	!	!
=85	=85	=85	=85	=85	=85	=85	=85	=85	=85	=85	=85	=85
8c\Lyy	6 4	.	4ff\yy	.	4aa\yy	.	4c\	no-	4a\	no-	4ff\	no-
8c\yy	.	.	.	.	.	.	.	.	.	.	.	.
8c\Jyy	.	.	8ff\yy	.	8aa\yy	.	8c\	-bis	8cc\	-bis	8aa\	-bis
=86	=86	=86	=86	=86	=86	=86	=86	=86	=86	=86	=86	=86
*	*	*	*tremolo	*	*	*	*	*	*	*	*	*
8c\Lyy	5 3	.	16ee\LLyy	.	16gg\LLyy	.	4.e\	pa-	4.cc\	pa-	4.gg\	pa-
.	.	.	16ee\yy	.	16ccc\yy	.	.	.	.	.	.	.
8c\yy	.	.	16ee\yy	.	16ee\yy	.	.	.	.	.	.	.
.	.	.	16ee\yy	.	16gg\yy	.	.	.	.	.	.	.
8c\Jyy	.	.	16ee\yy	.	16cc\yy	.	.	.	.	.	.	.
.	.	.	16ee\JJyy	.	16ee\JJyy	.	.	.	.	.	.	.
=87	=87	=87	=87	=87	=87	=87	=87	=87	=87	=87	=87	=87
8G\Lyy	7	.	16dd\LLyy	.	16dd\LLyy	.	4.d\	-cem	4b\	.	4.ff\	-cem
.	.	.	16dd\yy	.	16ff\yy	.	.	.	.	.	.	.
8G\yy	.	.	16dd\yy	.	16b\yy	.	.	.	.	.	.	.
.	.	.	16dd\yy	.	16dd\yy	.	.	.	.	.	.	.
8G\Jyy	.	.	16dd\yy	.	16g\yy	.	.	.	8g\	-cem	.	.
.	.	.	16dd\JJyy	.	16b\JJyy	.	.	.	.	.	.	.
*Xtremolo	*	*	*Xtremolo	*	*	*	*	*	*	*	*	*
!	!	!	!	!	!	!	!LO:LB:g=original	!	!	!	!	!
=88	=88	=88	=88	=88	=88	=88	=88	=88	=88	=88	=88	=88
!LO:TX:t=P:problem=mixed beam	!	!	!	!	!	!	!	!	!	!	!	!
8c\Lyy	.	.	8cc\Lyy	.	16cc\LLyy	.	4c\	pa-	4g\	pa-	4ee\	pa-
.	.	.	.	.	16b\yy	.	.	.	.	.	.	.
8C/yy	.	.	8cc\yy	.	16cc\yy	.	.	.	.	.	.	.
.	.	.	.	.	16dd\yy	.	.	.	.	.	.	.
8D/Jyy	#	.	8a\Jyy	.	16ee\yy	.	8d\	-cem	8a\	-cem	8ff#X\	-cem
.	.	.	.	.	16ff#X\JJyy	.	.	.	.	.	.	.
=89	=89	=89	=89	=89	=89	=89	=89	=89	=89	=89	=89	=89
!LO:TX:t=P:problem=mixed beam	!	!	!	!	!LO:TX:t=P:problem=mixed beam	!	!	!	!	!	!	!
8G\Lyy	.	.	8b\Lyy	.	8gg\Lyy	.	8d\	pa-	8b\	pa-	8gg\	pa-
8GG/Jyy	.	.	8b\yy	.	8g/yy	.	8d\	-cem	8b\	-cem	8gg\	-cem
8ryy	.	.	8cc\Jyy	.	8ee\Jyy	.	8r	.	8cc\	do-	8ee\	do-
!	!	!	!	!	!LO:LB:g=original	!	!	!	!	!	!	!
=90	=90	=90	=90	=90	=90	=90	=90	=90	=90	=90	=90	=90
!	!	!	!	!LO:DY:a:t=p.	!	!	!LO:TX:a:t=4	!	!	!	!	!
!	!	!	!	!	!	!	!LO:N:vis=00	!	!	!	!	!
8G\yy	.	.	8b\yy	p	8dd\yy	.	1.r	.	4b\	-na	4dd\	-na
8ryy	.	.	8ryy	.	8ryy	.	.	.	.	.	.	.
8ryy	.	.	8ryy	.	8ryy	.	.	.	16cc\LL	no-	16ee\LL	no-
.	.	.	.	.	.	.	.	.	16b\JJ	.	16dd\JJ	.
=91	=91	=91	=91	=91	=91	=91	=91	=91	=91	=91	=91	=91
8ryy	.	.	8ryy	.	8ryy	.	.	.	4.a\	-bis	4.cc\	-bis
8D/Lyy	.	.	8d/Lyy	.	8cc/Lyy 8d/yy	.	.	.	.	.	.	.
8D/Jyy	.	.	8d/Jyy	.	8cc/Jyy 8d/yy	.	.	.	.	.	.	.
=92	=92	=92	=92	=92	=92	=92	=92	=92	=92	=92	=92	=92
8D/yy	.	.	8d/yy	.	8cc/yy 8d/yy	.	.	.	4a\	pa-	4cc\	pa-
8ryy	.	.	8ryy	.	8ryy	.	.	.	.	.	.	.
8ryy	.	.	8ryy	.	8ryy	.	.	.	16b\LL	.	16dd\LL	.
.	.	.	.	.	.	.	.	.	16a\JJ	.	16cc\JJ	.
!	!	!	!	!	!	!	!	!	!	!	!LO:LB:g=original	!
=93	=93	=93	=93	=93	=93	=93	=93	=93	=93	=93	=93	=93
8ryy	.	.	8ryy	.	8ryy	.	.	.	8g\	-cem	8b\	-cem
!	!	!	!	!	!LO:TX:t=P:problem=mixed beam	!	!	!	!	!	!	!
8D\Lyy	6 4	.	8g/Lyy	.	8g/Lyy	.	.	.	8b\	do-	8dd\	Do-
8G\Jyy	.	.	8b\Jyy	.	8dd\Jyy	.	.	.	8b\	-na	8gg\	-na
!	!	!	!	!	!	!	!	!	!LO:LB:g=original	!	!	!
=94	=94	=94	=94	=94	=94	=94	=94	=94	=94	=94	=94	=94
!LO:TX:t=P:problem=mixed beam	!	!	!	!LO:DY:a:t=for.	!	!	!	!	!	!	!	!
8c\Lyy	.	.	8cc\Lyy	f	16ee\LLyy	.	4c\	No-	4g\	No-	4ee\	no-
.	.	.	.	.	16dd#X\yy	.	.	.	.	.	.	.
8C/yy	.	.	8cc\yy	.	16ee\yy	.	.	.	.	.	.	.
.	.	.	.	.	16gg\yy	.	.	.	.	.	.	.
8D/Jyy	#	.	8a\Jyy	.	16ff#X\yy	.	8d\	-bis	8a\	-bis	8ff#X\	-bis
.	.	.	.	.	16aa\JJyy	.	.	.	.	.	.	.
=95	=95	=95	=95	=95	=95	=95	=95	=95	=95	=95	=95	=95
!LO:TX:a:t=Repet&colon;	!	!	!	!	!	!	!	!	!	!	!	!
!LO:TX:t=P:problem=mixed beam	!	!	!	!	!	!	!	!	!	!	!	!
8G\Lyy	.	.	8b\Lyy	.	8gg\Lyy	.	8d\	pa-	8b\	pa-	8gg\	pa-
8GG/Jyy	.	.	8b\yy	.	8dd\yy	.	8g\	-cem	8b\	-cem	8dd\	-cem
8ryy	.	.	8b\Jyy	.	8dd\Jyy	.	8r	.	8r	.	8r	.
!	!	!	!LO:LB:g=original	!	!	!	!	!	!	!	!	!
=96	=96	=96	=96	=96	=96	=96	=96	=96	=96	=96	=96	=96
*	*	*	*tremolo	*	*	*	*	*	*	*	*	*
!LO:TX:t=P:problem=takty 96-97 zapisane repetycją	!	!	!	!	!	!	!	!	!	!	!	!
!LO:TX:t=P:problem=mixed beam	!	!	!	!	!LO:TX:t=P:problem=takty 96-97 zapisane repetycją	!	!	!	!	!	!	!
8c\Lyy	.	.	16cc\LLyy	.	16ee\LLyy	.	16c\	Do-	16g\	Do-	16ee\	Do-
.	.	.	16cc\yy	.	16dd#X\yy	.	16c\	-na	16g\	-na	16ee\	-na
8C/yy	.	.	16cc\yy	.	16ee\yy	.	8c\	no-	8g\	no-	8ee\	no-
.	.	.	16cc\JJyy	.	16gg\yy	.	.	.	.	.	.	.
*	*	*	*Xtremolo	*	*	*	*	*	*	*	*	*
8D/Jyy	#	.	16a/LLyy	.	16ff#X\yy	.	8d\	-bis	8a\	-bis	8ff#X\	-bis
.	.	.	16a/JJyy	.	16aa\JJyy	.	.	.	.	.	.	.
=97	=97	=97	=97	=97	=97	=97	=97	=97	=97	=97	=97	=97
*	*	*	*tremolo	*	*	*	*	*	*	*	*	*
!LO:TX:t=P:problem=mixed beam	!	!	!	!	!	!	!	!	!	!	!	!
8G\Lyy	.	.	16b\LLyy	.	8gg\Lyy	.	8d\	pa-	8b\	pa-	8gg\	pa-
.	.	.	16b\yy	.	.	.	.	.	.	.	.	.
8GG/Jyy	.	.	16b\yy	.	8dd\yy	.	4g\	-cem	4b\	-cem	4dd\	-cem
.	.	.	16b\yy	.	.	.	.	.	.	.	.	.
8ryy	.	.	16b\yy	.	8dd\Jyy	.	.	.	.	.	.	.
.	.	.	16b\JJyy	.	.	.	.	.	.	.	.	.
*	*	*	*Xtremolo	*	*	*	*	*	*	*	*	*
=98	=98	=98	=98	=98	=98	=98	=98	=98	=98	=98	=98	=98
!LO:TX:t=P:problem=mixed beam	!	!	!	!	!	!	!	!	!	!	!	!
8c\Lyy	.	.	8cc\Lyy	.	16ee\LLyy	.	16c\	do-	16g\	Do-	16ee\	Do-
.	.	.	.	.	16dd#X\yy	.	16c\	-na	16g\	-na	16ee\	-na
!	!	!	!	!	!	!	!LO:LB:g=original	!	!	!	!	!
8C/yy	.	.	8cc\yy	.	16ee\yy	.	8c\	no-	8g\	no-	8ee\	no-
.	.	.	.	.	16gg\yy	.	.	.	.	.	.	.
8D/Jyy	#	.	8a\Jyy	.	16ff#X\yy	.	8d\	-bis	8a\	-bis	8ff#X\	-bis
.	.	.	.	.	16aa\JJyy	.	.	.	.	.	.	.
!LO:LB:g=original	!	!	!	!	!	!	!	!	!	!	!	!
=99	=99	=99	=99	=99	=99	=99	=99	=99	=99	=99	=99	=99
*	*	*	*tremolo	*	*	*	*	*	*	*	*	*
!LO:TX:t=P:problem=mixed beam	!	!	!	!	!	!	!	!	!	!	!	!
8G\Lyy	.	.	16b\LLyy	.	8gg\Lyy	.	8d\	pa-	8b\	pa-	8gg\	pa-
.	.	.	16b\yy	.	.	.	.	.	.	.	.	.
8GG/yy	.	.	16b\yy	.	8dd\yy	.	4g\	-cem	8b\	-cem	4dd\	-cem
.	.	.	16b\yy	.	.	.	.	.	.	.	.	.
8GG/Jyy	.	.	16b\yy	.	8dd\Jyy	.	.	.	8r	.	.	.
.	.	.	16b\JJyy	.	.	.	.	.	.	.	.	.
*	*	*	*Xtremolo	*	*	*	*	*	*	*	*	*
!	!	!	!	!	!	!	!	!	!	!	!LO:LB:g=original	!
=100	=100	=100	=100	=100	=100	=100	=100	=100	=100	=100	=100	=100
8BB/Lyy	.	.	8b\Lyy	.	8dd\Lyy	.	8B\L	pa-	8b\	pa-	8dd\L	pa-
8C/yy	6	.	8a/yy	.	8cc\yy	.	8c\	.	8a\	.	8cc\	.
8C#X/Jyy	7 5	.	8g/Jyy	.	8b\Jyy	.	8c#X\J	.	8g\	.	8b\J	.
!	!	!	!	!	!	!	!	!	!LO:LB:g=original	!	!	!
=101	=101	=101	=101	=101	=101	=101	=101	=101	=101	=101	=101	=101
8D\yy	#	.	8f#X/yy	.	8a/yy	.	8d\	-cem	8f#X\	-cem	8a\	-cem
8ryy	.	.	8ryy	.	8ryy	.	8r	.	8r	.	8dd\	do-
8ryy	.	.	8ryy	.	8ryy	.	8r	.	8r	.	8dd\	-na
=102	=102	=102	=102	=102	=102	=102	=102	=102	=102	=102	=102	=102
!	!	!	!LO:TX:t=P:problem=mixed beam	!	!LO:TX:t=P:problem=mixed beam	!	!	!	!	!	!	!
8D\Lyy	.	.	16d/LLyy	.	16d/LLyy	.	4.A\	No-	4.f#X\	no-	4.cc\	No-
.	.	.	16cc\yy	.	16cc\yy	.	.	.	.	.	.	.
8F#X\yy	.	.	16b\yy	.	16b\yy	.	.	.	.	.	.	.
.	.	.	16cc\yy	.	16cc\yy	.	.	.	.	.	.	.
8D\Jyy	.	.	16dd\yy	.	16dd\yy	.	.	.	.	.	.	.
.	.	.	16cc\JJyy	.	16cc\JJyy	.	.	.	.	.	.	.
!	!	!	!	!	!LO:LB:g=original	!	!	!	!	!	!	!
=103	=103	=103	=103	=103	=103	=103	=103	=103	=103	=103	=103	=103
8G\Lyy	.	.	16b\LLyy	.	16b\LLyy	.	4.d\	-bis	4.g\	-bis	4.b\	-bis
.	.	.	16dd\yy	.	16dd\yy	.	.	.	.	.	.	.
8B\yy	.	.	16cc\yy	.	16cc\yy	.	.	.	.	.	.	.
.	.	.	16b\yy	.	16b\yy	.	.	.	.	.	.	.
8G\Jyy	.	.	16a\yy	.	16a\yy	.	.	.	.	.	.	.
.	.	.	16g\JJyy	.	16g\JJyy	.	.	.	.	.	.	.
=104	=104	=104	=104	=104	=104	=104	=104	=104	=104	=104	=104	=104
8D\Lyy	.	.	16f#X/LLyy	.	16f#X/LLyy	.	4.A\	pa-	4.f#X\	pa-	4.cc\	pa-
.	.	.	16g/yy	.	16g/yy	.	.	.	.	.	.	.
8F#X\yy	.	.	16a/yy	.	16a/yy	.	.	.	.	.	.	.
.	.	.	16b\yy	.	16b\yy	.	.	.	.	.	.	.
8D\Jyy	.	.	16cc\yy	.	16cc\yy	.	.	.	.	.	.	.
.	.	.	16a/JJyy	.	16a/JJyy	.	.	.	.	.	.	.
=105	=105	=105	=105	=105	=105	=105	=105	=105	=105	=105	=105	=105
8G\Lyy	.	.	8g/Lyy	.	8b\Lyy	.	4.d\	-cem	4.g\	-cem	4.b\	-cem
8B\yy	.	.	8b\yy	.	8dd\yy	.	.	.	.	.	.	.
8G\Jyy	.	.	8b\Jyy	.	8dd\Jyy	.	.	.	.	.	.	.
!	!	!	!LO:LB:g=original	!	!	!	!	!	!	!	!	!
=106	=106	=106	=106	=106	=106	=106	=106	=106	=106	=106	=106	=106
8D\Lyy	.	.	8a\Lyy	.	8dd\Lyy	.	4d\	Do-	4a\	Do-	4ff#X\	Do-
8F#X\yy	.	.	8aa\yy	.	8ccc\yy	.	.	.	.	.	.	.
8D\Jyy	.	.	8aa\Jyy	.	8ccc\Jyy	.	8d\	-na	8a\	-na	8ff#\	-na
=107	=107	=107	=107	=107	=107	=107	=107	=107	=107	=107	=107	=107
!	!	!	!LO:TX:t=P:problem=mixed beam	!	!	!	!	!	!	!	!	!
8G\Lyy	.	.	8gg\Lyy	.	16bb\LLyy	.	4d\	no-	4b\	no-	4gg\	No-
.	.	.	.	.	16ddd\yy	.	.	.	.	.	.	.
8B\yy	.	.	8b/yy 8d/yy	.	16ccc\yy	.	.	.	.	.	.	.
.	.	.	.	.	16bb\yy	.	.	.	.	.	.	.
8G\Jyy	.	.	8b/Jyy 8d/yy	.	16aa\yy	.	8d\	-bis	8b\	-bis	8gg\	-bis
.	.	.	.	.	16gg\JJyy	.	.	.	.	.	.	.
!	!	!	!	!	!	!	!LO:LB:g=original	!	!	!	!	!
=108	=108	=108	=108	=108	=108	=108	=108	=108	=108	=108	=108	=108
!LO:TX:t=P:problem=mixed beam	!	!	!	!	!	!	!	!	!	!	!	!
8c\Lyy	6	.	8a/Lyy 8d/yy	.	16ff#X\LLyy	.	4.d\	pa-	4cc\	pa-	4aa\	pa-
.	.	.	.	.	16gg\yy	.	.	.	.	.	.	.
8d\yy	#	.	8a/yy 8d/yy	.	16aa\yy	.	.	.	.	.	.	.
.	.	.	.	.	16bb\yy	.	.	.	.	.	.	.
8D/Jyy	.	.	8a/Jyy 8d/yy	.	16ccc\yy	.	.	.	8a\	.	8ff#X\	.
.	.	.	.	.	16aa\JJyy	.	.	.	.	.	.	.
=109	=109	=109	=109	=109	=109	=109	=109	=109	=109	=109	=109	=109
4G\yy	.	.	4b/yy 4d/yy	.	4gg\yy	.	4d\	-cem	4b\	-cem	4gg\	-cem
8ryy	.	.	8ryy	.	8ryy	.	8r	.	8r	.	8r	.
=110	=110	=110	=110	=110	=110	=110	=110	=110	=110	=110	=110	=110
!	!	!	!	!LO:DY:a:t=Piano	!	!LO:DY:b:t=piano	!LO:TX:a:t=7.	!	!LO:TX:a:t=7.	!	!LO:TX:a:t=7.	!
!	!	!	!	!	!	!	!LO:N:vis=00	!	!LO:N:vis=00	!	!LO:N:vis=00	!
8G\	n7	.	8.d/L	p	8.f/L	p	1.r	.	1.r	.	1.r	.
8r	.	.	.	.	.	.	.	.	.	.	.	.
.	.	.	16e/L	.	16g/L	.	.	.	.	.	.	.
8r	.	.	16d/	.	16f/	.	.	.	.	.	.	.
.	.	.	16c/JJ	.	16e/JJ	.	.	.	.	.	.	.
!LO:PB:g=original	!	!	!	!	!	!	!	!	!	!	!	!
=111	=111	=111	=111	=111	=111	=111	=111	=111	=111	=111	=111	=111
*tremolo	*	*	*	*	*	*	*	*	*	*	*	*
8G\L	5	.	8B/L	.	8d/L	.	.	.	.	.	.	.
8G\	.	.	8B/	.	8d/	.	.	.	.	.	.	.
8G\J	.	.	8B/J	.	8d/J	.	.	.	.	.	.	.
*Xtremolo	*	*	*	*	*	*	*	*	*	*	*	*
!	!	!	!	!	!LO:LB:g=original	!	!	!	!	!	!	!
=112	=112	=112	=112	=112	=112	=112	=112	=112	=112	=112	=112	=112
8c\	.	.	8.e/L	.	8.g/L	.	.	.	.	.	.	.
8r	.	.	.	.	.	.	.	.	.	.	.	.
.	.	.	16f/L	.	16a/L	.	.	.	.	.	.	.
8r	.	.	16e/	.	16g/	.	.	.	.	.	.	.
.	.	.	16d/JJ	.	16f/JJ	.	.	.	.	.	.	.
=113	=113	=113	=113	=113	=113	=113	=113	=113	=113	=113	=113	=113
!LO:TX:t=P:problem=mixed beam	!	!	!	!	!	!	!	!	!	!	!	!
8c\L	.	.	8c/L	.	8e/L	.	.	.	.	.	.	.
8C/	.	.	8c/	.	8e/	.	.	.	.	.	.	.
8C/J	.	.	8c/J	.	8e/J	.	.	.	.	.	.	.
=114	=114	=114	=114	=114	=114	=114	=114	=114	=114	=114	=114	=114
!	!	!	!	!	!	!	!LO:N:vis=0	!	!LO:N:vis=0	!	!LO:N:vis=0	!
8C/	.	.	16e/LL	.	16cc\LL	.	2.r	.	2.r	.	2.r	.
.	.	.	16f/	.	16dd\	.	.	.	.	.	.	.
8r	.	.	16e/	.	16cc\	.	.	.	.	.	.	.
.	.	.	16d/J	.	16b\J	.	.	.	.	.	.	.
8C/	.	.	8e/J	.	8cc\J	.	.	.	.	.	.	.
=115	=115	=115	=115	=115	=115	=115	=115	=115	=115	=115	=115	=115
8C/	6 4	.	16f/LL	.	16a/LL	.	.	.	.	.	.	.
.	.	.	16g/	.	16b-X\	.	.	.	.	.	.	.
8r	.	.	16f/	.	16a/	.	.	.	.	.	.	.
.	.	.	16e/J	.	16g/J	.	.	.	.	.	.	.
8C/	.	.	8f/J	.	8a/J	.	.	.	.	.	.	.
!	!	!	!LO:LB:g=original	!	!	!	!	!	!	!	!	!
=116	=116	=116	=116	=116	=116	=116	=116	=116	=116	=116	=116	=116
!LO:TX:t=P:problem=mixed beam	!	!	!	!	!	!	!	!	!	!	!	!
8F\L	.	.	8e/L	.	8f/L	.	4.r	.	4.r	.	4.r	.
8G\	4	.	8d/	.	8e/	.	.	.	.	.	.	.
8GG/J	3	.	8c/J	.	8d/J	.	.	.	.	.	.	.
!	!	!	!	!	!	!	!	!	!	!	!LO:LB:g=original	!
=117	=117	=117	=117	=117	=117	=117	=117	=117	=117	=117	=117	=117
!	!	!	!	!	!LO:TX:b:i:t=ſegui= Vertatur	!	!	!	!	!	!	!
4.GG/;	.	.	4.B/;	.	4.d/;	.	4.r;	.	4.r;	.	4.r;	.
!	!	!	!	!	!LO:PB:g=original	!	!	!	!	!	!	!
=118	=118	=118	=118	=118	=118	=118	=118	=118	=118	=118	=118	=118
!LO:TX:a:t=Tutti	!	!	!LO:TX:a:i:t=Tutti	!	!LO:TX:a:i:t=Tutti.	!	!	!	!	!	!	!
8C/L	.	.	8c/L	.	16ee\LL	.	4G/	Do-	4e\	Do-	4cc\	Do-
.	.	.	.	.	16ff\	.	.	.	.	.	.	.
8E\	.	.	8e/	.	16gg\	.	.	.	.	.	.	.
.	.	.	.	.	16ff\	.	.	.	.	.	.	.
8G\J	.	.	8g/J	.	16ee\	.	8B\	-na	8g\	-na	8dd\	-na
.	.	.	.	.	16dd\JJ	.	.	.	.	.	.	.
=119	=119	=119	=119	=119	=119	=119	=119	=119	=119	=119	=119	=119
!LO:TX:t=P:problem=mixed beam	!	!	!LO:TX:t=P:problem=mixed beam	!	!	!	!	!	!	!	!	!
8c\L	.	.	8cc\L	.	8cc\L	.	8c\	no-	8g\L	no-	8ee\	no-
8C/J	.	.	8e/	.	8cc\	.	8c\	-bis	8g\J	-bis	8ee\	-bis
8r	.	.	8e/J	.	8cc\J	.	8r	.	8r	.	8r	.
!	!	!	!	!	!	!	!	!	!LO:LB:g=original	!	!	!
=120	=120	=120	=120	=120	=120	=120	=120	=120	=120	=120	=120	=120
8G\L	.	.	8g/L	.	16dd\LL	.	4B\	Do-	4f\	Do-	4dd\	Do-
.	.	.	.	.	16cc#X\	.	.	.	.	.	.	.
8B\	.	.	8b\	.	16dd\	.	.	.	.	.	.	.
.	.	.	.	.	16ee\	.	.	.	.	.	.	.
8c\J	.	.	8cc\J	.	16ff\	.	8c\	-na	8g\	-na	8ee\	-na
.	.	.	.	.	16gg\JJ	.	.	.	.	.	.	.
=121	=121	=121	=121	=121	=121	=121	=121	=121	=121	=121	=121	=121
*tremolo	*	*	*	*	*	*	*	*	*	*	*	*
8c\L	6 4	.	4ff\	.	4aa\	.	4c\	no-	4a\	no-	4ff\	no-
8c\	.	.	.	.	.	.	.	.	.	.	.	.
8c\J	.	.	8ff\	.	8aa\	.	8c\	-bis	8cc\	-bis	8aa\	-bis
=122	=122	=122	=122	=122	=122	=122	=122	=122	=122	=122	=122	=122
8c\L	5 3	.	8ee\	.	16gg\LL	.	4.e\	pa-	4.cc\	pa-	4.gg\	pa-
.	.	.	.	.	16ccc\	.	.	.	.	.	.	.
8c\	.	.	8r	.	16ee\	.	.	.	.	.	.	.
.	.	.	.	.	16gg\	.	.	.	.	.	.	.
8c\J	.	.	8cc\	.	16cc\	.	.	.	.	.	.	.
.	.	.	.	.	16ee\JJ	.	.	.	.	.	.	.
!LO:LB:g=original	!	!	!	!	!	!	!	!	!	!	!	!
=123	=123	=123	=123	=123	=123	=123	=123	=123	=123	=123	=123	=123
8G\L	7	.	8dd\	.	16dd\LL	.	4.d\	-cem	4b\	.	4.ff\	-cem
.	.	.	.	.	16ff\	.	.	.	.	.	.	.
8G\	.	.	8r	.	16b\	.	.	.	.	.	.	.
.	.	.	.	.	16dd\	.	.	.	.	.	.	.
8G\J	.	.	8b\	.	16g\	.	.	.	8g\	-cem	.	.
.	.	.	.	.	16b\JJ	.	.	.	.	.	.	.
=124	=124	=124	=124	=124	=124	=124	=124	=124	=124	=124	=124	=124
!LO:TX:t=P:problem=mixed beam	!	!	!	!	!	!	!	!	!	!	!	!
8c\L	.	.	8cc\	.	16cc\LL	.	4d\	pa-	4g\	pa-	4ee\	pa-
.	.	.	.	.	16b\	.	.	.	.	.	.	.
8C/	.	.	8r	.	16cc\	.	.	.	.	.	.	.
.	.	.	.	.	16dd\	.	.	.	.	.	.	.
8D/J	#	.	8a/	.	16ee\	.	8d\	-cem	8a\	-cem	8ff#X\	-cem
.	.	.	.	.	16ff#X\JJ	.	.	.	.	.	.	.
!	!	!	!	!	!	!	!LO:LB:g=original	!	!	!	!	!
=125	=125	=125	=125	=125	=125	=125	=125	=125	=125	=125	=125	=125
!	!	!	!	!	!LO:TX:t=P:problem=mixed beam	!	!	!	!	!	!	!
8G\L	.	.	8.g/L	.	8gg\L	.	8d\	pa-	8b\	pa-	8gg\	pa-
16G\L	.	.	.	.	8g/J	.	8d\	-cem	8b\	-cem	8gg\	-cem
16Fn\	.	.	16f/L	.	.	.	.	.	.	.	.	.
16E\	.	.	16e/	.	8r	.	8r	.	8r	.	8r	.
16D\JJ	.	.	16d/JJ	.	.	.	.	.	.	.	.	.
!	!	!	!LO:LB:g=original	!	!	!	!	!	!	!	!	!
=126	=126	=126	=126	=126	=126	=126	=126	=126	=126	=126	=126	=126
8C/L	.	.	8c/L	.	16ee\LL	.	4G/	Do-	4e\	Do-	4cc\	Do-
.	.	.	.	.	16ff\	.	.	.	.	.	.	.
8E\	.	.	8e/	.	16gg\	.	.	.	.	.	.	.
.	.	.	.	.	16ff\	.	.	.	.	.	.	.
8G\J	.	.	8g/J	.	16ee\	.	8B/	-na	8g\	-na	8dd\	-na
.	.	.	.	.	16dd\JJ	.	.	.	.	.	.	.
!	!	!	!	!	!LO:LB:g=original	!	!	!	!	!	!	!
=127	=127	=127	=127	=127	=127	=127	=127	=127	=127	=127	=127	=127
!LO:TX:t=P:problem=mixed beam	!	!	!	!	!	!	!	!	!	!	!	!
8c\L	.	.	8e/L	.	8cc\L	.	8c\	no-	8g\	no-	8ee\	No-
8C/J	.	.	8e/	.	8cc\	.	8c\	-bis	8g\	-bis	8ee\	-bis
8r	.	.	8e/J	.	8cc\J	.	8r	.	8r	.	8r	.
!	!	!	!	!	!	!	!	!	!	!	!LO:LB:g=original	!
=128	=128	=128	=128	=128	=128	=128	=128	=128	=128	=128	=128	=128
8G\L	.	.	8g/L	.	16dd\LL	.	4B\	Do-	4f\	Do-	4dd\	Do-
.	.	.	.	.	16cc#X\	.	.	.	.	.	.	.
8B\	.	.	8b\	.	16dd\	.	.	.	.	.	.	.
.	.	.	.	.	16ee\	.	.	.	.	.	.	.
8c\J	6_ 4_	.	8cc\J	.	16ff\	.	8c\	-na	8g\	-na	8ee\	-na
.	.	.	.	.	16gg\JJ	.	.	.	.	.	.	.
!	!	!	!	!	!	!	!	!	!LO:LB:g=original	!	!	!
=129	=129	=129	=129	=129	=129	=129	=129	=129	=129	=129	=129	=129
8c\L	.	.	4ff\	.	4aa\	.	4c\	no-	4a\	no-	4ff\	no-
8c\	.	.	.	.	.	.	.	.	.	.	.	.
8c\J	X X	.	8ff\	.	8aa\	.	8c\	-bis	8cc\	-bis	8aa\	-bis
=130	=130	=130	=130	=130	=130	=130	=130	=130	=130	=130	=130	=130
8c\L	.	.	16ee\LL	.	16gg\LL	.	4e\	do-	4cc\	Do-	4gg\	Do-
.	.	.	16ff\	.	16aa\	.	.	.	.	.	.	.
8E\	.	.	16ee\	.	16gg\	.	.	.	.	.	.	.
.	.	.	16cc\J	.	16ee\J	.	.	.	.	.	.	.
8G\J	5	.	8dd\J	.	8ff\J	.	8d\	-na	8b\	-na	8ff\	-na
=131	=131	=131	=131	=131	=131	=131	=131	=131	=131	=131	=131	=131
8C/L	.	.	8cc\	.	16ee\LL	.	4c\	no-	4cc\	no-	4ee\	No-
.	.	.	.	.	16ff\	.	.	.	.	.	.	.
8E\	.	.	8r	.	16ee\	.	.	.	.	.	.	.
.	.	.	.	.	16cc\J	.	.	.	.	.	.	.
8G\J	5	.	8f/	.	8dd\J	.	8G/	-bis	8g\	-bis	8dd\	-bis
=132	=132	=132	=132	=132	=132	=132	=132	=132	=132	=132	=132	=132
8c\L	.	.	8e/L 8c/	.	8cc/L 8e/ 8G/	.	4.G/	pa-	4.e\	pa-	4.cc\	pa-
8G\	.	.	8e/ 8c/	.	8cc/ 8e/ 8G/	.	.	.	.	.	.	.
8E\J	.	.	8e/J 8c/	.	8cc/J 8e/ 8G/	.	.	.	.	.	.	.
=133	=133	=133	=133	=133	=133	=133	=133	=133	=133	=133	=133	=133
4C/	.	.	4e/ 4c/	.	4cc/ 4e/ 4G/	.	4G/	-cem	4e\	-cem	4cc\	-cem
!LO:TX:a:t=P:problem=znak repetycji	!	!	!LO:TX:a:t=P:problem=znak repetycji	!	!	!	!	!	!	!	!	!
8r	.	.	8r	.	8r	.	8r	.	8r	.	8r	.
!	!	!	!	!	!	!	!LO:LB:g=original	!	!	!	!	!
=134	=134	=134	=134	=134	=134	=134	=134	=134	=134	=134	=134	=134
!LO:TX:t=P:problem=takty 134-158 zapisane repetycją	!	!	!LO:TX:t=P:problem=takty 134-158 zapisane repetycją	!LO:DY:a:t=Piano	!	!	!LO:TX:a:t=7.	!	!LO:TX:a:t=7.	!	!LO:TX:a:t=7.	!
!	!	!	!	!	!	!	!LO:N:vis=00	!	!LO:N:vis=00	!	!LO:N:vis=00	!
8G\yy	n7	.	8.d/Lyy	p	8.f/L	.	1.r	.	1.r	.	1.r	.
8ryy	.	.	.	.	.	.	.	.	.	.	.	.
.	.	.	16e/Lyy	.	16g/L	.	.	.	.	.	.	.
8ryy	.	.	16d/yy	.	16f/	.	.	.	.	.	.	.
.	.	.	16c/JJyy	.	16e/JJ	.	.	.	.	.	.	.
!LO:PB:g=original	!	!	!	!	!	!	!	!	!	!	!	!
=135	=135	=135	=135	=135	=135	=135	=135	=135	=135	=135	=135	=135
8G\Lyy	5	.	8B/Lyy	.	8d/L	.	.	.	.	.	.	.
8G\yy	.	.	8B/yy	.	8d/	.	.	.	.	.	.	.
8G\Jyy	.	.	8B/Jyy	.	8d/J	.	.	.	.	.	.	.
*Xtremolo	*	*	*	*	*	*	*	*	*	*	*	*
!	!	!	!	!	!LO:LB:g=original	!	!	!	!	!	!	!
=136	=136	=136	=136	=136	=136	=136	=136	=136	=136	=136	=136	=136
!	!	!	!	!	!LO:TX:a:t=P:problem=dwa skreślone takty	!	!	!	!	!	!	!
8c\yy	.	.	8.e/Lyy	.	8.g/L	.	.	.	.	.	.	.
8ryy	.	.	.	.	.	.	.	.	.	.	.	.
.	.	.	16f/Lyy	.	16a/L	.	.	.	.	.	.	.
8ryy	.	.	16e/yy	.	16g/	.	.	.	.	.	.	.
.	.	.	16d/JJyy	.	16f/JJ	.	.	.	.	.	.	.
=137	=137	=137	=137	=137	=137	=137	=137	=137	=137	=137	=137	=137
!LO:TX:t=P:problem=mixed beam	!	!	!	!	!	!	!	!	!	!	!	!
8c\Lyy	.	.	8c/Lyy	.	8e/L	.	.	.	.	.	.	.
8C/yy	.	.	8c/yy	.	8e/	.	.	.	.	.	.	.
8C/Jyy	.	.	8c/Jyy	.	8e/J	.	.	.	.	.	.	.
=138	=138	=138	=138	=138	=138	=138	=138	=138	=138	=138	=138	=138
!	!	!	!	!	!	!	!LO:N:vis=0	!	!LO:N:vis=0	!	!LO:N:vis=0	!
8C/yy	.	.	16e/LLyy	.	16cc\LL	.	2.r	.	2.r	.	2.r	.
.	.	.	16f/yy	.	16dd\	.	.	.	.	.	.	.
8ryy	.	.	16e/yy	.	16cc\	.	.	.	.	.	.	.
.	.	.	16d/Jyy	.	16b\J	.	.	.	.	.	.	.
8C/yy	.	.	8e/Jyy	.	8cc\J	.	.	.	.	.	.	.
=139	=139	=139	=139	=139	=139	=139	=139	=139	=139	=139	=139	=139
8C/yy	6 4	.	16f/LLyy	.	16a/LL	.	.	.	.	.	.	.
.	.	.	16g/yy	.	16b-X\	.	.	.	.	.	.	.
8ryy	.	.	16f/yy	.	16a/	.	.	.	.	.	.	.
.	.	.	16e/Jyy	.	16g/J	.	.	.	.	.	.	.
8C/yy	.	.	8f/Jyy	.	8a/J	.	.	.	.	.	.	.
!	!	!	!LO:LB:g=original	!	!	!	!	!	!	!	!	!
=140	=140	=140	=140	=140	=140	=140	=140	=140	=140	=140	=140	=140
!LO:TX:t=P:problem=mixed beam	!	!	!	!	!	!	!	!	!	!	!	!
8F\Lyy	.	.	8e/Lyy	.	8f/L	.	4.r	.	4.r	.	4.r	.
8G\yy	4	.	8d/yy	.	8e/	.	.	.	.	.	.	.
8GG/Jyy	3	.	8c/Jyy	.	8d/J	.	.	.	.	.	.	.
=141	=141	=141	=141	=141	=141	=141	=141	=141	=141	=141	=141	=141
4.GG/;yy	.	.	4.B/;yy	.	4.d/;	.	4.r;	.	4.r;	.	4.r;	.
=142	=142	=142	=142	=142	=142	=142	=142	=142	=142	=142	=142	=142
!LO:TX:a:t=Tutti	!	!	!LO:TX:a:i:t=Tutti	!	!LO:TX:a:i:t=Tutti.	!	!	!	!	!	!	!
8C/Lyy	.	.	8c/Lyy	.	16ee\LL	.	4G/	Do-	4e\	Do-	4cc\	Do-
.	.	.	.	.	16ff\	.	.	.	.	.	.	.
8E/yy	.	.	8e/yy	.	16gg\	.	.	.	.	.	.	.
.	.	.	.	.	16ff\	.	.	.	.	.	.	.
8G/Jyy	.	.	8g/Jyy	.	16ee\	.	8B/	-na	8g\	-na	8dd\	-na
.	.	.	.	.	16dd\JJ	.	.	.	.	.	.	.
=143	=143	=143	=143	=143	=143	=143	=143	=143	=143	=143	=143	=143
!LO:TX:t=P:problem=mixed beam	!	!	!LO:TX:t=P:problem=mixed beam	!	!	!	!	!	!	!	!	!
8c\Lyy	.	.	8cc\Lyy	.	8cc\L	.	8c\	no-	8g\	no-	8ee\	no-
8C/Jyy	.	.	8e/yy	.	8cc\	.	8c\	-bis	8g\	-bis	8ee\	-bis
8ryy	.	.	8e/Jyy	.	8cc\J	.	8r	.	8r	.	8r	.
!	!	!	!	!	!LO:LB:g=original	!	!	!	!	!	!LO:LB:g=original	!
=144	=144	=144	=144	=144	=144	=144	=144	=144	=144	=144	=144	=144
8G\Lyy	.	.	8g/Lyy	.	16dd\LL	.	4B\	Do-	4f\	do-	4dd\	Do-
.	.	.	.	.	16cc#X\	.	.	.	.	.	.	.
8B\yy	.	.	8b\yy	.	16dd\	.	.	.	.	.	.	.
.	.	.	.	.	16ee\	.	.	.	.	.	.	.
8c\Jyy	.	.	8cc\Jyy	.	16ff\	.	8c\	-na	8g\	-na	8ee\	-na
.	.	.	.	.	16gg\JJ	.	.	.	.	.	.	.
=145	=145	=145	=145	=145	=145	=145	=145	=145	=145	=145	=145	=145
*tremolo	*	*	*	*	*	*	*	*	*	*	*	*
8c\Lyy	6 4	.	4ff\yy	.	4aa\	.	4c\	no-	4a\	no-	4ff\	No-
8c\yy	.	.	.	.	.	.	.	.	.	.	.	.
8c\Jyy	.	.	8ff\yy	.	8aa\	.	8c\	-bis	8cc\	-bis	8aa\	-bis
!	!	!	!	!	!	!	!	!	!LO:LB:g=original	!	!	!
=146	=146	=146	=146	=146	=146	=146	=146	=146	=146	=146	=146	=146
8c\Lyy	5 3	.	8ee\yy	.	16gg\LL	.	4.e\	pa-	4.cc\	pa-	4.gg\	pa-
.	.	.	.	.	16ccc\	.	.	.	.	.	.	.
8c\yy	.	.	8ryy	.	16ee\	.	.	.	.	.	.	.
.	.	.	.	.	16gg\	.	.	.	.	.	.	.
8c\Jyy	.	.	8cc\yy	.	16cc\	.	.	.	.	.	.	.
.	.	.	.	.	16ee\JJ	.	.	.	.	.	.	.
!LO:LB:g=original	!	!	!	!	!	!	!	!	!	!	!	!
=147	=147	=147	=147	=147	=147	=147	=147	=147	=147	=147	=147	=147
8G\Lyy	7	.	8dd\yy	.	16dd\LL	.	4.d\	-cem	4b\	.	4.ff\	-cem
.	.	.	.	.	16ff\	.	.	.	.	.	.	.
8G\yy	.	.	8ryy	.	16b\	.	.	.	.	.	.	.
.	.	.	.	.	16dd\	.	.	.	.	.	.	.
8G\Jyy	.	.	8b\yy	.	16g\	.	.	.	8g\	-cem	.	.
.	.	.	.	.	16b\JJ	.	.	.	.	.	.	.
=148	=148	=148	=148	=148	=148	=148	=148	=148	=148	=148	=148	=148
!LO:TX:t=P:problem=mixed beam	!	!	!	!	!	!	!	!	!	!	!	!
8c\Lyy	.	.	8cc\yy	.	16cc\LL	.	4d\	pa-	4g\	pa-	4ee\	pa-
.	.	.	.	.	16b\	.	.	.	.	.	.	.
8C/yy	.	.	8ryy	.	16cc\	.	.	.	.	.	.	.
.	.	.	.	.	16dd\	.	.	.	.	.	.	.
8D/Jyy	#	.	8a/yy	.	16ee\	.	8d\	-cem	8a\	-cem	8ff#X\	-cem
.	.	.	.	.	16ff#X\JJ	.	.	.	.	.	.	.
!	!	!	!	!	!	!	!LO:LB:g=original	!	!	!	!	!
=149	=149	=149	=149	=149	=149	=149	=149	=149	=149	=149	=149	=149
!	!	!	!	!	!LO:TX:t=P:problem=mixed beam	!	!	!	!	!	!	!
8G\Lyy	.	.	8.g/Lyy	.	8gg\L	.	8d\	pa-	8b\	pa-	8gg\	pa-
16G\Lyy	.	.	.	.	8g/J	.	8d\	-cem	8b\	-cem	8gg\	-cem
16Fn\yy	.	.	16f/Lyy	.	.	.	.	.	.	.	.	.
16E\yy	.	.	16e/yy	.	8r	.	8r	.	8r	.	8r	.
16D\JJyy	.	.	16d/JJyy	.	.	.	.	.	.	.	.	.
!	!	!	!LO:LB:g=original	!	!	!	!	!	!	!	!	!
=150	=150	=150	=150	=150	=150	=150	=150	=150	=150	=150	=150	=150
8C/Lyy	.	.	8c/Lyy	.	16ee\LL	.	4G/	Do-	4e\	Do-	4cc\	Do-
.	.	.	.	.	16ff\	.	.	.	.	.	.	.
8E/yy	.	.	8e/yy	.	16gg\	.	.	.	.	.	.	.
.	.	.	.	.	16ff\	.	.	.	.	.	.	.
8G/Jyy	.	.	8g/Jyy	.	16ee\	.	8B\	-na	8g\	-na	8dd\	-na
.	.	.	.	.	16dd\JJ	.	.	.	.	.	.	.
=151	=151	=151	=151	=151	=151	=151	=151	=151	=151	=151	=151	=151
!LO:TX:t=P:problem=mixed beam	!	!	!	!	!	!	!	!	!	!	!	!
8c\Lyy	.	.	8e/Lyy	.	8cc\L	.	8c\	no-	8g\	No-	8ee\	No-
8C/Jyy	.	.	8e/yy	.	8cc\	.	8c\	-bis	8g\	-bis	8ee\	-bis
8ryy	.	.	8e/Jyy	.	8cc\J	.	8r	.	8r	.	8r	.
!	!	!	!	!	!LO:LB:g=original	!	!	!	!	!	!	!
=152	=152	=152	=152	=152	=152	=152	=152	=152	=152	=152	=152	=152
8G\Lyy	.	.	8g/Lyy	.	16dd\LL	.	4B\	Do-	4f\	Do-	4dd\	Do-
.	.	.	.	.	16cc#X\	.	.	.	.	.	.	.
8B\yy	.	.	8b\yy	.	16dd\	.	.	.	.	.	.	.
.	.	.	.	.	16ee\	.	.	.	.	.	.	.
8c\Jyy	6_ 4_	.	8cc\Jyy	.	16ff\	.	8c\	-na	8g\	-na	8ee\	-na
.	.	.	.	.	16gg\JJ	.	.	.	.	.	.	.
!	!	!	!	!	!	!	!	!	!	!	!LO:LB:g=original	!
=153	=153	=153	=153	=153	=153	=153	=153	=153	=153	=153	=153	=153
8c\Lyy	.	.	4ff\yy	.	4aa\	.	4c\	No-	4a\	no-	4ff\	No-
8c\yy	.	.	.	.	.	.	.	.	.	.	.	.
8c\Jyy	X X	.	8ff\yy	.	8aa\	.	8c\	-bis	8cc\	-bis	8aa\	-bis
*Xtremolo	*	*	*	*	*	*	*	*	*	*	*	*
=154	=154	=154	=154	=154	=154	=154	=154	=154	=154	=154	=154	=154
8c\Lyy	.	.	16ee\LLyy	.	16gg\LL	.	4e\	Do-	4cc\	Do-	4gg\	Do-
.	.	.	16ff\yy	.	16aa\	.	.	.	.	.	.	.
8E\yy	.	.	16ee\yy	.	16gg\	.	.	.	.	.	.	.
.	.	.	16cc\Jyy	.	16ee\J	.	.	.	.	.	.	.
8G\Jyy	5	.	8dd\Jyy	.	8ff\J	.	8d\	-na	8b\	-na	8ff\	-na
!	!	!	!	!	!	!	!	!	!LO:LB:g=original	!	!	!
=155	=155	=155	=155	=155	=155	=155	=155	=155	=155	=155	=155	=155
8C/Lyy	.	.	8cc\yy	.	16ee\LL	.	4c\	No-	4cc\	no-	4ee\	No-
.	.	.	.	.	16ff\	.	.	.	.	.	.	.
8E\yy	.	.	8ryy	.	16ee\	.	.	.	.	.	.	.
.	.	.	.	.	16cc\J	.	.	.	.	.	.	.
8G\Jyy	5	.	8f/yy	.	8dd\J	.	8G/	-bis	8g\	-bis	8dd\	-bis
!	!	!	!	!	!	!	!LO:LB:g=original	!	!	!	!	!
=156	=156	=156	=156	=156	=156	=156	=156	=156	=156	=156	=156	=156
8c\Lyy	.	.	8e/Lyy 8c/yy	.	8cc/L 8e/ 8G/	.	4.G/	pa-	4.e\	pa-	4.cc\	pa-
8G\yy	.	.	8e/yy 8c/yy	.	8cc/ 8e/ 8G/	.	.	.	.	.	.	.
8E\Jyy	.	.	8e/Jyy 8c/yy	.	8cc/J 8e/ 8G/	.	.	.	.	.	.	.
=157	=157	=157	=157	=157	=157	=157	=157	=157	=157	=157	=157	=157
4C/yy	.	.	4e/yy 4c/yy	.	4cc/ 4e/ 4G/	.	4G/	-cem	4e\	-cem	4cc\	-cem
!LO:TX:b:i:t=A.M.D.Gloriam	!	!	!LO:TX:b:i:t=A.M.D.G.	!	!LO:TX:b:i:t=A.M.D.Gloriam	!	!	!	!	!	!	!
8ryy	.	.	8ryy	.	8r	.	8r	.	8r	.	8r	.
==;;	==	==	==	==	==	==	==	==	==;;	==	==	==
*-	*-	*-	*-	*-	*-	*-	*-	*-	*-	*-	*-	*-
!!!system-decoration: [g1][g2]s6
!!!ENC: Marta Lawrence
!!!END: 2020-11-09
!!!ENC: Andrzej Borzym
!!!END: 2020-05-26
!!!RDF**kern: | = vertical stroke
